%
O00001001
(T1  D=3. CR=0. - ZMIN=-8. - FLAT END MILL)
G90 G94 G17
G21
G91
G28 Z0.
G90
(DRILL1)
T1 M6
S8000 M3
G54
G0 X-324. Y214.
G43 Z15. H1
G0 Z5.
Z2.
G1 Z-2. F300.
G0 Z-1.9
G1 Z-4. F300.
G0 Z-3.9
G1 Z-6. F300.
G0 Z-5.9
G1 Z-8. F300.
G0 Z5.
Y234.
Z2.
G1 Z-2. F300.
G0 Z-1.9
G1 Z-4. F300.
G0 Z-3.9
G1 Z-6. F300.
G0 Z-5.9
G1 Z-8. F300.
G0 Z5.
Y254.
Z2.
G1 Z-2. F300.
G0 Z-1.9
G1 Z-4. F300.
G0 Z-3.9
G1 Z-6. F300.
G0 Z-5.9
G1 Z-8. F300.
G0 Z5.
X-265.5 Y270.
Z2.
G1 Z-2. F300.
G0 Z-1.9
G1 Z-4. F300.
G0 Z-3.9
G1 Z-6. F300.
G0 Z-5.9
G1 Z-8. F300.
G0 Z5.
X-250.5
Z2.
G1 Z-2. F300.
G0 Z-1.9
G1 Z-4. F300.
G0 Z-3.9
G1 Z-6. F300.
G0 Z-5.9
G1 Z-8. F300.
G0 Z5.
X-247.8 Y242.
Z2.
G1 Z-2. F300.
G0 Z-1.9
G1 Z-4. F300.
G0 Z-3.9
G1 Z-6. F300.
G0 Z-5.9
G1 Z-8. F300.
G0 Z5.
X-231.8
Z2.
G1 Z-2. F300.
G0 Z-1.9
G1 Z-4. F300.
G0 Z-3.9
G1 Z-6. F300.
G0 Z-5.9
G1 Z-8. F300.
G0 Z5.
X-71.5 Y282.
Z2.
G1 Z-2. F300.
G0 Z-1.9
G1 Z-4. F300.
G0 Z-3.9
G1 Z-6. F300.
G0 Z-5.9
G1 Z-8. F300.
G0 Z5.
X-88.5
Z2.
G1 Z-2. F300.
G0 Z-1.9
G1 Z-4. F300.
G0 Z-3.9
G1 Z-6. F300.
G0 Z-5.9
G1 Z-8. F300.
G0 Z5.
X-105.5
Z2.
G1 Z-2. F300.
G0 Z-1.9
G1 Z-4. F300.
G0 Z-3.9
G1 Z-6. F300.
G0 Z-5.9
G1 Z-8. F300.
G0 Z5.
Y252.
Z2.
G1 Z-2. F300.
G0 Z-1.9
G1 Z-4. F300.
G0 Z-3.9
G1 Z-6. F300.
G0 Z-5.9
G1 Z-8. F300.
G0 Z5.
X-88.5
Z2.
G1 Z-2. F300.
G0 Z-1.9
G1 Z-4. F300.
G0 Z-3.9
G1 Z-6. F300.
G0 Z-5.9
G1 Z-8. F300.
G0 Z5.
X-71.5
Z2.
G1 Z-2. F300.
G0 Z-1.9
G1 Z-4. F300.
G0 Z-3.9
G1 Z-6. F300.
G0 Z-5.9
G1 Z-8. F300.
G0 Z5.
X-48. Y243.5
Z2.
G1 Z-2. F300.
G0 Z-1.9
G1 Z-4. F300.
G0 Z-3.9
G1 Z-6. F300.
G0 Z-5.9
G1 Z-8. F300.
G0 Z5.
X-13.
Z2.
G1 Z-2. F300.
G0 Z-1.9
G1 Z-4. F300.
G0 Z-3.9
G1 Z-6. F300.
G0 Z-5.9
G1 Z-8. F300.
G0 Z5.
Y197.
Z2.
G1 Z-2. F300.
G0 Z-1.9
G1 Z-4. F300.
G0 Z-3.9
G1 Z-6. F300.
G0 Z-5.9
G1 Z-8. F300.
G0 Z5.
X-48.
Z2.
G1 Z-2. F300.
G0 Z-1.9
G1 Z-4. F300.
G0 Z-3.9
G1 Z-6. F300.
G0 Z-5.9
G1 Z-8. F300.
G0 Z5.
X-80. Y193.
Z2.
G1 Z-2. F300.
G0 Z-1.9
G1 Z-4. F300.
G0 Z-3.9
G1 Z-6. F300.
G0 Z-5.9
G1 Z-8. F300.
G0 Z5.
Y213.
Z2.
G1 Z-2. F300.
G0 Z-1.9
G1 Z-4. F300.
G0 Z-3.9
G1 Z-6. F300.
G0 Z-5.9
G1 Z-8. F300.
G0 Z5.
X-116.
Z2.
G1 Z-2. F300.
G0 Z-1.9
G1 Z-4. F300.
G0 Z-3.9
G1 Z-6. F300.
G0 Z-5.9
G1 Z-8. F300.
G0 Z5.
Y193.
Z2.
G1 Z-2. F300.
G0 Z-1.9
G1 Z-4. F300.
G0 Z-3.9
G1 Z-6. F300.
G0 Z-5.9
G1 Z-8. F300.
G0 Z5.
X-153.6 Y184.715
Z2.
G1 Z-2. F300.
G0 Z-1.9
G1 Z-4. F300.
G0 Z-3.9
G1 Z-6. F300.
G0 Z-5.9
G1 Z-8. F300.
G0 Z5.
X-185.
Z2.
G1 Z-2. F300.
G0 Z-1.9
G1 Z-4. F300.
G0 Z-3.9
G1 Z-6. F300.
G0 Z-5.9
G1 Z-8. F300.
G0 Z5.
X-216.4
Z2.
G1 Z-2. F300.
G0 Z-1.9
G1 Z-4. F300.
G0 Z-3.9
G1 Z-6. F300.
G0 Z-5.9
G1 Z-8. F300.
G0 Z5.
X-250.5 Y190.
Z2.
G1 Z-2. F300.
G0 Z-1.9
G1 Z-4. F300.
G0 Z-3.9
G1 Z-6. F300.
G0 Z-5.9
G1 Z-8. F300.
G0 Z5.
X-265.5
Z2.
G1 Z-2. F300.
G0 Z-1.9
G1 Z-4. F300.
G0 Z-3.9
G1 Z-6. F300.
G0 Z-5.9
G1 Z-8. F300.
G0 Z5.
X-269. Y158.
Z2.
G1 Z-2. F300.
G0 Z-1.9
G1 Z-4. F300.
G0 Z-3.9
G1 Z-6. F300.
G0 Z-5.9
G1 Z-8. F300.
G0 Z5.
X-253.
Z2.
G1 Z-2. F300.
G0 Z-1.9
G1 Z-4. F300.
G0 Z-3.9
G1 Z-6. F300.
G0 Z-5.9
G1 Z-8. F300.
G0 Z5.
X-269. Y107.
Z2.
G1 Z-2. F300.
G0 Z-1.9
G1 Z-4. F300.
G0 Z-3.9
G1 Z-6. F300.
G0 Z-5.9
G1 Z-8. F300.
G0 Z5.
X-253.
Z2.
G1 Z-2. F300.
G0 Z-1.9
G1 Z-4. F300.
G0 Z-3.9
G1 Z-6. F300.
G0 Z-5.9
G1 Z-8. F300.
G0 Z5.
X-216.4 Y101.285
Z2.
G1 Z-2. F300.
G0 Z-1.9
G1 Z-4. F300.
G0 Z-3.9
G1 Z-6. F300.
G0 Z-5.9
G1 Z-8. F300.
G0 Z5.
X-203. Y83.
Z2.
G1 Z-2. F300.
G0 Z-1.9
G1 Z-4. F300.
G0 Z-3.9
G1 Z-6. F300.
G0 Z-5.9
G1 Z-8. F300.
G0 Z5.
X-185. Y101.285
Z2.
G1 Z-2. F300.
G0 Z-1.9
G1 Z-4. F300.
G0 Z-3.9
G1 Z-6. F300.
G0 Z-5.9
G1 Z-8. F300.
G0 Z5.
X-175. Y100.
Z2.
G1 Z-2. F300.
G0 Z-1.9
G1 Z-4. F300.
G0 Z-3.9
G1 Z-6. F300.
G0 Z-5.9
G1 Z-8. F300.
G0 Z5.
X-163.
Z2.
G1 Z-2. F300.
G0 Z-1.9
G1 Z-4. F300.
G0 Z-3.9
G1 Z-6. F300.
G0 Z-5.9
G1 Z-8. F300.
G0 Z5.
X-153.6 Y101.285
Z2.
G1 Z-2. F300.
G0 Z-1.9
G1 Z-4. F300.
G0 Z-3.9
G1 Z-6. F300.
G0 Z-5.9
G1 Z-8. F300.
G0 Z5.
X-163. Y70.
Z2.
G1 Z-2. F300.
G0 Z-1.9
G1 Z-4. F300.
G0 Z-3.9
G1 Z-6. F300.
G0 Z-5.9
G1 Z-8. F300.
G0 Z5.
X-175.
Z2.
G1 Z-2. F300.
G0 Z-1.9
G1 Z-4. F300.
G0 Z-3.9
G1 Z-6. F300.
G0 Z-5.9
G1 Z-8. F300.
G0 Z5.
X-81. Y63.
Z2.
G1 Z-2. F300.
G0 Z-1.9
G1 Z-4. F300.
G0 Z-3.9
G1 Z-6. F300.
G0 Z-5.9
G1 Z-8. F300.
G0 Z5.
Y83.
Z2.
G1 Z-2. F300.
G0 Z-1.9
G1 Z-4. F300.
G0 Z-3.9
G1 Z-6. F300.
G0 Z-5.9
G1 Z-8. F300.
G0 Z5.
X-48. Y89.
Z2.
G1 Z-2. F300.
G0 Z-1.9
G1 Z-4. F300.
G0 Z-3.9
G1 Z-6. F300.
G0 Z-5.9
G1 Z-8. F300.
G0 Z5.
X-13.
Z2.
G1 Z-2. F300.
G0 Z-1.9
G1 Z-4. F300.
G0 Z-3.9
G1 Z-6. F300.
G0 Z-5.9
G1 Z-8. F300.
G0 Z5.
Y42.5
Z2.
G1 Z-2. F300.
G0 Z-1.9
G1 Z-4. F300.
G0 Z-3.9
G1 Z-6. F300.
G0 Z-5.9
G1 Z-8. F300.
G0 Z5.
X-48.
Z2.
G1 Z-2. F300.
G0 Z-1.9
G1 Z-4. F300.
G0 Z-3.9
G1 Z-6. F300.
G0 Z-5.9
G1 Z-8. F300.
G0 Z5.
X-71.5 Y34.
Z2.
G1 Z-2. F300.
G0 Z-1.9
G1 Z-4. F300.
G0 Z-3.9
G1 Z-6. F300.
G0 Z-5.9
G1 Z-8. F300.
G0 Z5.
X-81. Y38.
Z2.
G1 Z-2. F300.
G0 Z-1.9
G1 Z-4. F300.
G0 Z-3.9
G1 Z-6. F300.
G0 Z-5.9
G1 Z-8. F300.
G0 Z5.
X-88.5 Y34.
Z2.
G1 Z-2. F300.
G0 Z-1.9
G1 Z-4. F300.
G0 Z-3.9
G1 Z-6. F300.
G0 Z-5.9
G1 Z-8. F300.
G0 Z5.
X-105.5
Z2.
G1 Z-2. F300.
G0 Z-1.9
G1 Z-4. F300.
G0 Z-3.9
G1 Z-6. F300.
G0 Z-5.9
G1 Z-8. F300.
G0 Z5.
Y4.
Z2.
G1 Z-2. F300.
G0 Z-1.9
G1 Z-4. F300.
G0 Z-3.9
G1 Z-6. F300.
G0 Z-5.9
G1 Z-8. F300.
G0 Z5.
X-88.5
Z2.
G1 Z-2. F300.
G0 Z-1.9
G1 Z-4. F300.
G0 Z-3.9
G1 Z-6. F300.
G0 Z-5.9
G1 Z-8. F300.
G0 Z5.
X-71.5
Z2.
G1 Z-2. F300.
G0 Z-1.9
G1 Z-4. F300.
G0 Z-3.9
G1 Z-6. F300.
G0 Z-5.9
G1 Z-8. F300.
G0 Z5.
Z15.
G91
G28 Z0.
M5
G28 X0. Y0.
M30
%
