%
O00001002
(T1  D=3. CR=0. - ZMIN=-8. - FLAT END MILL)
G90 G94 G17
G21
G91
G28 Z0.
G90
(2D CONTOUR1)
T1 M6
S8000 M3
G54
G0 X-91.475 Y19.
G43 Z15. H1
G0 Z5.
G1 Z2. F300.
Z-0.938
G3 X-110.525 I-9.525 F320.
X-91.475 I9.525
G1 Z-1.875 F300.
G3 X-110.525 I-9.525 F320.
X-91.475 I9.525
G1 Z-2.813 F300.
G3 X-110.525 I-9.525 F320.
X-91.475 I9.525
G1 Z-3.75 F300.
G3 X-110.525 I-9.525 F320.
X-91.475 I9.525
G1 Z-4.688 F300.
G3 X-110.525 I-9.525 F320.
X-91.475 I9.525
G1 Z-5.625 F300.
G3 X-110.525 I-9.525 F320.
X-91.475 I9.525
G1 Z-6.563 F300.
G3 X-110.525 I-9.525 F320.
X-91.475 I9.525
G1 Z-7.5 F300.
G3 X-110.525 I-9.525 F320.
X-91.475 I9.525
G0 Z5.
Y267.
G1 Z2. F300.
Z-0.938
G3 X-110.525 I-9.525 F320.
X-91.475 I9.525
G1 Z-1.875 F300.
G3 X-110.525 I-9.525 F320.
X-91.475 I9.525
G1 Z-2.813 F300.
G3 X-110.525 I-9.525 F320.
X-91.475 I9.525
G1 Z-3.75 F300.
G3 X-110.525 I-9.525 F320.
X-91.475 I9.525
G1 Z-4.688 F300.
G3 X-110.525 I-9.525 F320.
X-91.475 I9.525
G1 Z-5.625 F300.
G3 X-110.525 I-9.525 F320.
X-91.475 I9.525
G1 Z-6.563 F300.
G3 X-110.525 I-9.525 F320.
X-91.475 I9.525
G1 Z-7.5 F300.
G3 X-110.525 I-9.525 F320.
X-91.475 I9.525
G0 Z15.
X-146. Y64.6
Z5.
G1 Z2. F300.
Z-1.
G3 Y63.4 J-0.6 F320.
G1 X-96.
G3 Y64.6 J0.6
G1 X-146.
Z-2. F300.
G3 Y63.4 J-0.6 F320.
G1 X-96.
G3 Y64.6 J0.6
G1 X-146.
Z-3. F300.
G3 Y63.4 J-0.6 F320.
G1 X-96.
G3 Y64.6 J0.6
G1 X-146.
Z-4. F300.
G3 Y63.4 J-0.6 F320.
G1 X-96.
G3 Y64.6 J0.6
G1 X-146.
Z-5. F300.
G3 Y63.4 J-0.6 F320.
G1 X-96.
G3 Y64.6 J0.6
G1 X-146.
Z-6. F300.
G3 Y63.4 J-0.6 F320.
G1 X-96.
G3 Y64.6 J0.6
G1 X-146.
Z-7. F300.
G3 Y63.4 J-0.6 F320.
G1 X-96.
G3 Y64.6 J0.6
G1 X-146.
Z-8. F300.
G3 Y63.4 J-0.6 F320.
G1 X-96.
G3 Y64.6 J0.6
G1 X-146.
G0 Z5.
X-145.595 Y93.4
G1 Z2. F300.
Z-1.
X-96. F320.
G3 Y94.6 J0.6
G1 X-146.
G3 Y93.4 J-0.6
G1 X-145.595
Z-2. F300.
X-96. F320.
G3 Y94.6 J0.6
G1 X-146.
G3 Y93.4 J-0.6
G1 X-145.595
Z-3. F300.
X-96. F320.
G3 Y94.6 J0.6
G1 X-146.
G3 Y93.4 J-0.6
G1 X-145.595
Z-4. F300.
X-96. F320.
G3 Y94.6 J0.6
G1 X-146.
G3 Y93.4 J-0.6
G1 X-145.595
Z-5. F300.
X-96. F320.
G3 Y94.6 J0.6
G1 X-146.
G3 Y93.4 J-0.6
G1 X-145.595
Z-6. F300.
X-96. F320.
G3 Y94.6 J0.6
G1 X-146.
G3 Y93.4 J-0.6
G1 X-145.595
Z-7. F300.
X-96. F320.
G3 Y94.6 J0.6
G1 X-146.
G3 Y93.4 J-0.6
G1 X-145.595
Z-8. F300.
X-96. F320.
G3 Y94.6 J0.6
G1 X-146.
G3 Y93.4 J-0.6
G1 X-145.595
G0 Z5.
X-192.419 Y84.899
G1 Z2. F300.
Z-1.
G3 X-197.625 Y92.31 I-10.581 J-1.899 F320.
X-198.65 Y92.035 I-0.375 J-0.649
X-198.375 Y91.011 I0.65 J-0.375
G2 X-193.75 Y83. I-4.625 J-8.011
G3 X-192.25 I0.75
X-192.419 Y84.899 I-10.75
G1 Z-2. F300.
G3 X-197.625 Y92.31 I-10.581 J-1.899 F320.
X-198.65 Y92.035 I-0.375 J-0.649
X-198.375 Y91.011 I0.65 J-0.375
G2 X-193.75 Y83. I-4.625 J-8.011
G3 X-192.25 I0.75
X-192.419 Y84.899 I-10.75
G1 Z-3. F300.
G3 X-197.625 Y92.31 I-10.581 J-1.899 F320.
X-198.65 Y92.035 I-0.375 J-0.649
X-198.375 Y91.011 I0.65 J-0.375
G2 X-193.75 Y83. I-4.625 J-8.011
G3 X-192.25 I0.75
X-192.419 Y84.899 I-10.75
G1 Z-4. F300.
G3 X-197.625 Y92.31 I-10.581 J-1.899 F320.
X-198.65 Y92.035 I-0.375 J-0.649
X-198.375 Y91.011 I0.65 J-0.375
G2 X-193.75 Y83. I-4.625 J-8.011
G3 X-192.25 I0.75
X-192.419 Y84.899 I-10.75
G1 Z-5. F300.
G3 X-197.625 Y92.31 I-10.581 J-1.899 F320.
X-198.65 Y92.035 I-0.375 J-0.649
X-198.375 Y91.011 I0.65 J-0.375
G2 X-193.75 Y83. I-4.625 J-8.011
G3 X-192.25 I0.75
X-192.419 Y84.899 I-10.75
G1 Z-6. F300.
G3 X-197.625 Y92.31 I-10.581 J-1.899 F320.
X-198.65 Y92.035 I-0.375 J-0.649
X-198.375 Y91.011 I0.65 J-0.375
G2 X-193.75 Y83. I-4.625 J-8.011
G3 X-192.25 I0.75
X-192.419 Y84.899 I-10.75
G1 Z-7. F300.
G3 X-197.625 Y92.31 I-10.581 J-1.899 F320.
X-198.65 Y92.035 I-0.375 J-0.649
X-198.375 Y91.011 I0.65 J-0.375
G2 X-193.75 Y83. I-4.625 J-8.011
G3 X-192.25 I0.75
X-192.419 Y84.899 I-10.75
G1 Z-8. F300.
G3 X-197.625 Y92.31 I-10.581 J-1.899 F320.
X-198.65 Y92.035 I-0.375 J-0.649
X-198.375 Y91.011 I0.65 J-0.375
G2 X-193.75 Y83. I-4.625 J-8.011
G3 X-192.25 I0.75
X-192.419 Y84.899 I-10.75
G0 Z15.
G91
G28 Z0.
M5
G28 X0. Y0.
M30
%
