%
O00001003
(T1  D=3. CR=0. - ZMIN=-8. - FLAT END MILL)
G90 G94 G17
G21
G91
G28 Z0.
G90
(2D CONTOUR1)
T1 M6
S8000 M3
G54
G0 X-91.775 Y18.9
G43 Z15. H1
G0 Z5.
G1 Z2. F300.
Z-0.838
G18 G2 X-91.675 Z-0.938 I0.1
G1 X-91.575 F500.
G17 G3 X-91.475 Y19. J0.1
X-110.525 I-9.525 F320.
X-91.475 I9.525
X-91.575 Y19.1 I-0.1 F500.
G1 X-91.675
G18 G3 X-91.775 Z-0.838 K0.1
G0 Z5.
Y18.9
G1 Z1.063 F300.
Z-1.775
G2 X-91.675 Z-1.875 I0.1
G1 X-91.575 F500.
G17 G3 X-91.475 Y19. J0.1
X-110.525 I-9.525 F320.
X-91.475 I9.525
X-91.575 Y19.1 I-0.1 F500.
G1 X-91.675
G18 G3 X-91.775 Z-1.775 K0.1
G0 Z5.
Y18.9
G1 Z0.125 F300.
Z-2.713
G2 X-91.675 Z-2.813 I0.1
G1 X-91.575 F500.
G17 G3 X-91.475 Y19. J0.1
X-110.525 I-9.525 F320.
X-91.475 I9.525
X-91.575 Y19.1 I-0.1 F500.
G1 X-91.675
G18 G3 X-91.775 Z-2.713 K0.1
G0 Z5.
Y18.9
G1 Z-0.813 F300.
Z-3.65
G2 X-91.675 Z-3.75 I0.1
G1 X-91.575 F500.
G17 G3 X-91.475 Y19. J0.1
X-110.525 I-9.525 F320.
X-91.475 I9.525
X-91.575 Y19.1 I-0.1 F500.
G1 X-91.675
G18 G3 X-91.775 Z-3.65 K0.1
G0 Z5.
Y18.9
G1 Z-1.75 F300.
Z-4.588
G2 X-91.675 Z-4.688 I0.1
G1 X-91.575 F500.
G17 G3 X-91.475 Y19. J0.1
X-110.525 I-9.525 F320.
X-91.475 I9.525
X-91.575 Y19.1 I-0.1 F500.
G1 X-91.675
G18 G3 X-91.775 Z-4.588 K0.1
G0 Z5.
Y18.9
G1 Z-2.688 F300.
Z-5.525
G2 X-91.675 Z-5.625 I0.1
G1 X-91.575 F500.
G17 G3 X-91.475 Y19. J0.1
X-110.525 I-9.525 F320.
X-91.475 I9.525
X-91.575 Y19.1 I-0.1 F500.
G1 X-91.675
G18 G3 X-91.775 Z-5.525 K0.1
G0 Z5.
Y18.9
G1 Z-3.625 F300.
Z-6.463
G2 X-91.675 Z-6.563 I0.1
G1 X-91.575 F500.
G17 G3 X-91.475 Y19. J0.1
X-110.525 I-9.525 F320.
X-91.475 I9.525
X-91.575 Y19.1 I-0.1 F500.
G1 X-91.675
G18 G3 X-91.775 Z-6.463 K0.1
G0 Z5.
Y18.9
G1 Z-4.563 F300.
Z-7.4
G2 X-91.675 Z-7.5 I0.1
G1 X-91.575 F500.
G17 G3 X-91.475 Y19. J0.1
X-110.525 I-9.525 F320.
X-91.475 I9.525
X-91.575 Y19.1 I-0.1 F500.
G1 X-91.675
G18 G3 X-91.775 Z-7.4 K0.1
G0 Z5.
Y266.9
G1 Z2. F300.
Z-0.838
G2 X-91.675 Z-0.938 I0.1
G1 X-91.575 F500.
G17 G3 X-91.475 Y267. J0.1
X-110.525 I-9.525 F320.
X-91.475 I9.525
X-91.575 Y267.1 I-0.1 F500.
G1 X-91.675
G18 G3 X-91.775 Z-0.838 K0.1
G0 Z5.
Y266.9
G1 Z1.063 F300.
Z-1.775
G2 X-91.675 Z-1.875 I0.1
G1 X-91.575 F500.
G17 G3 X-91.475 Y267. J0.1
X-110.525 I-9.525 F320.
X-91.475 I9.525
X-91.575 Y267.1 I-0.1 F500.
G1 X-91.675
G18 G3 X-91.775 Z-1.775 K0.1
G0 Z5.
Y266.9
G1 Z0.125 F300.
Z-2.713
G2 X-91.675 Z-2.813 I0.1
G1 X-91.575 F500.
G17 G3 X-91.475 Y267. J0.1
X-110.525 I-9.525 F320.
X-91.475 I9.525
X-91.575 Y267.1 I-0.1 F500.
G1 X-91.675
G18 G3 X-91.775 Z-2.713 K0.1
G0 Z5.
Y266.9
G1 Z-0.813 F300.
Z-3.65
G2 X-91.675 Z-3.75 I0.1
G1 X-91.575 F500.
G17 G3 X-91.475 Y267. J0.1
X-110.525 I-9.525 F320.
X-91.475 I9.525
X-91.575 Y267.1 I-0.1 F500.
G1 X-91.675
G18 G3 X-91.775 Z-3.65 K0.1
G0 Z5.
Y266.9
G1 Z-1.75 F300.
Z-4.588
G2 X-91.675 Z-4.688 I0.1
G1 X-91.575 F500.
G17 G3 X-91.475 Y267. J0.1
X-110.525 I-9.525 F320.
X-91.475 I9.525
X-91.575 Y267.1 I-0.1 F500.
G1 X-91.675
G18 G3 X-91.775 Z-4.588 K0.1
G0 Z5.
Y266.9
G1 Z-2.688 F300.
Z-5.525
G2 X-91.675 Z-5.625 I0.1
G1 X-91.575 F500.
G17 G3 X-91.475 Y267. J0.1
X-110.525 I-9.525 F320.
X-91.475 I9.525
X-91.575 Y267.1 I-0.1 F500.
G1 X-91.675
G18 G3 X-91.775 Z-5.525 K0.1
G0 Z5.
Y266.9
G1 Z-3.625 F300.
Z-6.463
G2 X-91.675 Z-6.563 I0.1
G1 X-91.575 F500.
G17 G3 X-91.475 Y267. J0.1
X-110.525 I-9.525 F320.
X-91.475 I9.525
X-91.575 Y267.1 I-0.1 F500.
G1 X-91.675
G18 G3 X-91.775 Z-6.463 K0.1
G0 Z5.
Y266.9
G1 Z-4.563 F300.
Z-7.4
G2 X-91.675 Z-7.5 I0.1
G1 X-91.575 F500.
G17 G3 X-91.475 Y267. J0.1
X-110.525 I-9.525 F320.
X-91.475 I9.525
X-91.575 Y267.1 I-0.1 F500.
G1 X-91.675
G18 G3 X-91.775 Z-7.4 K0.1
G0 Z15.
X-145.9 Y64.3
Z5.
G1 Z2. F300.
Z-0.9
G19 G3 Y64.4 Z-1. J0.1
G1 Y64.5 F500.
G17 G3 X-146. Y64.6 I-0.1
Y63.4 J-0.6 F320.
G1 X-96.
G3 Y64.6 J0.6
G1 X-146.
G3 X-146.1 Y64.5 J-0.1 F500.
G1 Y64.4
G19 G2 Y64.3 Z-0.9 K0.1
G0 Z5.
X-145.9
G1 Z1. F300.
Z-1.9
G3 Y64.4 Z-2. J0.1
G1 Y64.5 F500.
G17 G3 X-146. Y64.6 I-0.1
Y63.4 J-0.6 F320.
G1 X-96.
G3 Y64.6 J0.6
G1 X-146.
G3 X-146.1 Y64.5 J-0.1 F500.
G1 Y64.4
G19 G2 Y64.3 Z-1.9 K0.1
G0 Z5.
X-145.9
G1 Z0. F300.
Z-2.9
G3 Y64.4 Z-3. J0.1
G1 Y64.5 F500.
G17 G3 X-146. Y64.6 I-0.1
Y63.4 J-0.6 F320.
G1 X-96.
G3 Y64.6 J0.6
G1 X-146.
G3 X-146.1 Y64.5 J-0.1 F500.
G1 Y64.4
G19 G2 Y64.3 Z-2.9 K0.1
G0 Z5.
X-145.9
G1 Z-1. F300.
Z-3.9
G3 Y64.4 Z-4. J0.1
G1 Y64.5 F500.
G17 G3 X-146. Y64.6 I-0.1
Y63.4 J-0.6 F320.
G1 X-96.
G3 Y64.6 J0.6
G1 X-146.
G3 X-146.1 Y64.5 J-0.1 F500.
G1 Y64.4
G19 G2 Y64.3 Z-3.9 K0.1
G0 Z5.
X-145.9
G1 Z-2. F300.
Z-4.9
G3 Y64.4 Z-5. J0.1
G1 Y64.5 F500.
G17 G3 X-146. Y64.6 I-0.1
Y63.4 J-0.6 F320.
G1 X-96.
G3 Y64.6 J0.6
G1 X-146.
G3 X-146.1 Y64.5 J-0.1 F500.
G1 Y64.4
G19 G2 Y64.3 Z-4.9 K0.1
G0 Z5.
X-145.9
G1 Z-3. F300.
Z-5.9
G3 Y64.4 Z-6. J0.1
G1 Y64.5 F500.
G17 G3 X-146. Y64.6 I-0.1
Y63.4 J-0.6 F320.
G1 X-96.
G3 Y64.6 J0.6
G1 X-146.
G3 X-146.1 Y64.5 J-0.1 F500.
G1 Y64.4
G19 G2 Y64.3 Z-5.9 K0.1
G0 Z5.
X-145.9
G1 Z-4. F300.
Z-6.9
G3 Y64.4 Z-7. J0.1
G1 Y64.5 F500.
G17 G3 X-146. Y64.6 I-0.1
Y63.4 J-0.6 F320.
G1 X-96.
G3 Y64.6 J0.6
G1 X-146.
G3 X-146.1 Y64.5 J-0.1 F500.
G1 Y64.4
G19 G2 Y64.3 Z-6.9 K0.1
G0 Z5.
X-145.9
G1 Z-5. F300.
Z-7.9
G3 Y64.4 Z-8. J0.1
G1 Y64.5 F500.
G17 G3 X-146. Y64.6 I-0.1
Y63.4 J-0.6 F320.
G1 X-96.
G3 Y64.6 J0.6
G1 X-146.
G3 X-146.1 Y64.5 J-0.1 F500.
G1 Y64.4
G19 G2 Y64.3 Z-7.9 K0.1
G0 Z5.
X-145.695 Y93.7
G1 Z2. F300.
Z-0.9
G2 Y93.6 Z-1. J-0.1
G1 Y93.5 F500.
G17 G3 X-145.595 Y93.4 I0.1
G1 X-96. F320.
G3 Y94.6 J0.6
G1 X-146.
G3 Y93.4 J-0.6
G1 X-145.595
G3 X-145.495 Y93.5 J0.1 F500.
G1 Y93.6
G19 G3 Y93.7 Z-0.9 K0.1
G0 Z5.
X-145.695
G1 Z1. F300.
Z-1.9
G2 Y93.6 Z-2. J-0.1
G1 Y93.5 F500.
G17 G3 X-145.595 Y93.4 I0.1
G1 X-96. F320.
G3 Y94.6 J0.6
G1 X-146.
G3 Y93.4 J-0.6
G1 X-145.595
G3 X-145.495 Y93.5 J0.1 F500.
G1 Y93.6
G19 G3 Y93.7 Z-1.9 K0.1
G0 Z5.
X-145.695
G1 Z0. F300.
Z-2.9
G2 Y93.6 Z-3. J-0.1
G1 Y93.5 F500.
G17 G3 X-145.595 Y93.4 I0.1
G1 X-96. F320.
G3 Y94.6 J0.6
G1 X-146.
G3 Y93.4 J-0.6
G1 X-145.595
G3 X-145.495 Y93.5 J0.1 F500.
G1 Y93.6
G19 G3 Y93.7 Z-2.9 K0.1
G0 Z5.
X-145.695
G1 Z-1. F300.
Z-3.9
G2 Y93.6 Z-4. J-0.1
G1 Y93.5 F500.
G17 G3 X-145.595 Y93.4 I0.1
G1 X-96. F320.
G3 Y94.6 J0.6
G1 X-146.
G3 Y93.4 J-0.6
G1 X-145.595
G3 X-145.495 Y93.5 J0.1 F500.
G1 Y93.6
G19 G3 Y93.7 Z-3.9 K0.1
G0 Z5.
X-145.695
G1 Z-2. F300.
Z-4.9
G2 Y93.6 Z-5. J-0.1
G1 Y93.5 F500.
G17 G3 X-145.595 Y93.4 I0.1
G1 X-96. F320.
G3 Y94.6 J0.6
G1 X-146.
G3 Y93.4 J-0.6
G1 X-145.595
G3 X-145.495 Y93.5 J0.1 F500.
G1 Y93.6
G19 G3 Y93.7 Z-4.9 K0.1
G0 Z5.
X-145.695
G1 Z-3. F300.
Z-5.9
G2 Y93.6 Z-6. J-0.1
G1 Y93.5 F500.
G17 G3 X-145.595 Y93.4 I0.1
G1 X-96. F320.
G3 Y94.6 J0.6
G1 X-146.
G3 Y93.4 J-0.6
G1 X-145.595
G3 X-145.495 Y93.5 J0.1 F500.
G1 Y93.6
G19 G3 Y93.7 Z-5.9 K0.1
G0 Z5.
X-145.695
G1 Z-4. F300.
Z-6.9
G2 Y93.6 Z-7. J-0.1
G1 Y93.5 F500.
G17 G3 X-145.595 Y93.4 I0.1
G1 X-96. F320.
G3 Y94.6 J0.6
G1 X-146.
G3 Y93.4 J-0.6
G1 X-145.595
G3 X-145.495 Y93.5 J0.1 F500.
G1 Y93.6
G19 G3 Y93.7 Z-6.9 K0.1
G0 Z5.
X-145.695
G1 Z-5. F300.
Z-7.9
G2 Y93.6 Z-8. J-0.1
G1 Y93.5 F500.
G17 G3 X-145.595 Y93.4 I0.1
G1 X-96. F320.
G3 Y94.6 J0.6
G1 X-146.
G3 Y93.4 J-0.6
G1 X-145.595
G3 X-145.495 Y93.5 J0.1 F500.
G1 Y93.6
G19 G3 Y93.7 Z-7.9 K0.1
G0 Z5.
X-192.713 Y84.841
G1 Z2. F300.
Z-0.9
X-192.706 Y84.843 Z-0.938
X-192.684 Y84.847 Z-0.971
X-192.652 Y84.853 Z-0.992
X-192.615 Y84.86 Z-1.
X-192.516 Y84.878 F500.
G17 G3 X-192.437 Y84.995 I-0.019 J0.098
X-197.625 Y92.31 I-10.563 J-1.995 F320.
X-198.65 Y92.035 I-0.375 J-0.649
X-198.375 Y91.011 I0.65 J-0.375
G2 X-193.75 Y83. I-4.625 J-8.011
G3 X-192.25 I0.75
X-192.437 Y84.995 I-10.75
X-192.554 Y85.075 I-0.098 J-0.019 F500.
G1 X-192.652 Y85.056
X-192.689 Y85.049 Z-0.992
X-192.721 Y85.043 Z-0.971
X-192.743 Y85.039 Z-0.938
X-192.75 Y85.038 Z-0.9
G0 Z5.
X-192.73 Y84.935
G1 Z1. F300.
Z-1.9
X-192.723 Y84.936 Z-1.938
X-192.701 Y84.94 Z-1.971
X-192.67 Y84.947 Z-1.992
X-192.632 Y84.954 Z-2.
X-192.534 Y84.974 F500.
G3 X-192.455 Y85.091 I-0.019 J0.098
X-197.625 Y92.31 I-10.545 J-2.091 F320.
X-198.65 Y92.035 I-0.375 J-0.649
X-198.375 Y91.011 I0.65 J-0.375
G2 X-193.75 Y83. I-4.625 J-8.011
G3 X-192.25 I0.75
X-192.455 Y85.091 I-10.75
X-192.573 Y85.17 I-0.098 J-0.019 F500.
G1 X-192.671 Y85.15
X-192.709 Y85.143 Z-1.992
X-192.74 Y85.137 Z-1.971
X-192.762 Y85.132 Z-1.938
X-192.769 Y85.131 Z-1.9
G0 Z5.
X-192.748 Y85.028
G1 Z0. F300.
Z-2.9
X-192.741 Y85.03 Z-2.938
X-192.72 Y85.034 Z-2.971
X-192.688 Y85.041 Z-2.992
X-192.65 Y85.049 Z-3.
X-192.552 Y85.069 F500.
G3 X-192.475 Y85.187 I-0.02 J0.098
X-197.625 Y92.31 I-10.525 J-2.187 F320.
X-198.65 Y92.035 I-0.375 J-0.649
X-198.375 Y91.011 I0.65 J-0.375
G2 X-193.75 Y83. I-4.625 J-8.011
G3 X-192.25 I0.75
X-192.475 Y85.187 I-10.75
X-192.593 Y85.265 I-0.098 J-0.02 F500.
G1 X-192.691 Y85.244
X-192.728 Y85.237 Z-2.992
X-192.76 Y85.23 Z-2.971
X-192.781 Y85.226 Z-2.938
X-192.789 Y85.224 Z-2.9
G0 Z5.
X-192.767 Y85.121
G1 Z-1. F300.
Z-3.9
X-192.76 Y85.123 Z-3.938
X-192.738 Y85.128 Z-3.971
X-192.707 Y85.135 Z-3.992
X-192.669 Y85.143 Z-4.
X-192.572 Y85.164 F500.
G3 X-192.495 Y85.283 I-0.021 J0.098
X-197.625 Y92.31 I-10.505 J-2.283 F320.
X-198.65 Y92.035 I-0.375 J-0.649
X-198.375 Y91.011 I0.65 J-0.375
G2 X-193.75 Y83. I-4.625 J-8.011
G3 X-192.25 I0.75
X-192.495 Y85.283 I-10.75
X-192.614 Y85.359 I-0.098 J-0.021 F500.
G1 X-192.712 Y85.338
X-192.749 Y85.33 Z-3.992
X-192.781 Y85.323 Z-3.971
X-192.802 Y85.319 Z-3.938
X-192.81 Y85.317 Z-3.9
G0 Z5.
X-192.787 Y85.215
G1 Z-2. F300.
Z-4.9
X-192.779 Y85.216 Z-4.938
X-192.758 Y85.221 Z-4.971
X-192.727 Y85.228 Z-4.992
X-192.689 Y85.237 Z-5.
X-192.592 Y85.259 F500.
G3 X-192.516 Y85.378 I-0.022 J0.098
X-197.625 Y92.31 I-10.484 J-2.378 F320.
X-198.65 Y92.035 I-0.375 J-0.649
X-198.375 Y91.011 I0.65 J-0.375
G2 X-193.75 Y83. I-4.625 J-8.011
G3 X-192.25 I0.75
X-192.516 Y85.378 I-10.75
X-192.636 Y85.454 I-0.098 J-0.022 F500.
G1 X-192.734 Y85.432
X-192.771 Y85.423 Z-4.992
X-192.803 Y85.416 Z-4.971
X-192.824 Y85.411 Z-4.938
X-192.831 Y85.41 Z-4.9
G0 Z5.
X-192.807 Y85.307
G1 Z-3. F300.
Z-5.9
X-192.8 Y85.309 Z-5.938
X-192.779 Y85.314 Z-5.971
X-192.747 Y85.322 Z-5.992
X-192.71 Y85.33 Z-6.
X-192.613 Y85.353 F500.
G3 X-192.539 Y85.474 I-0.023 J0.097
X-197.625 Y92.31 I-10.461 J-2.474 F320.
X-198.65 Y92.035 I-0.375 J-0.649
X-198.375 Y91.011 I0.65 J-0.375
G2 X-193.75 Y83. I-4.625 J-8.011
G3 X-192.25 I0.75
X-192.539 Y85.474 I-10.75
X-192.659 Y85.548 I-0.097 J-0.023 F500.
G1 X-192.756 Y85.525
X-192.793 Y85.516 Z-5.992
X-192.825 Y85.509 Z-5.971
X-192.846 Y85.504 Z-5.938
X-192.853 Y85.502 Z-5.9
G0 Z5.
X-192.829 Y85.4
G1 Z-4. F300.
Z-6.9
X-192.821 Y85.402 Z-6.938
X-192.8 Y85.407 Z-6.971
X-192.769 Y85.415 Z-6.992
X-192.732 Y85.424 Z-7.
X-192.635 Y85.448 F500.
G3 X-192.561 Y85.569 I-0.024 J0.097
X-197.625 Y92.31 I-10.439 J-2.569 F320.
X-198.65 Y92.035 I-0.375 J-0.649
X-198.375 Y91.011 I0.65 J-0.375
G2 X-193.75 Y83. I-4.625 J-8.011
G3 X-192.25 I0.75
X-192.561 Y85.569 I-10.75
X-192.682 Y85.642 I-0.097 J-0.024 F500.
G1 X-192.78 Y85.618
X-192.817 Y85.609 Z-6.992
X-192.848 Y85.601 Z-6.971
X-192.869 Y85.596 Z-6.938
X-192.877 Y85.594 Z-6.9
G0 Z5.
X-192.851 Y85.493
G1 Z-5. F300.
Z-7.9
X-192.844 Y85.495 Z-7.938
X-192.823 Y85.5 Z-7.971
X-192.791 Y85.508 Z-7.992
X-192.754 Y85.517 Z-8.
X-192.657 Y85.542 F500.
G3 X-192.585 Y85.664 I-0.025 J0.097
X-197.625 Y92.31 I-10.415 J-2.664 F320.
X-198.65 Y92.035 I-0.375 J-0.649
X-198.375 Y91.011 I0.65 J-0.375
G2 X-193.75 Y83. I-4.625 J-8.011
G3 X-192.25 I0.75
X-192.585 Y85.664 I-10.75
X-192.707 Y85.736 I-0.097 J-0.025 F500.
G1 X-192.804 Y85.711
X-192.841 Y85.702 Z-7.992
X-192.872 Y85.694 Z-7.971
X-192.893 Y85.688 Z-7.938
X-192.901 Y85.686 Z-7.9
G0 Z15.
G91
G28 Z0.
M5
G28 X0. Y0.
M30
%
