%
O00001004
(T1  D=3. CR=0. - ZMIN=-5. - FLAT END MILL)
G90 G94 G17
G21
G91
G28 Z0.
G90
(2D CONTOUR1 (2))
T1 M6
S8000 M3
G54
G0 X-321.8 Y207.9
G43 Z15. H1
G0 Z5.
G1 Z2. F300.
Z-0.9
G18 G2 X-321.7 Z-1. I0.1
G1 X-321.6 F500.
G17 G3 X-321.5 Y208. J0.1
G1 Y261.113 F320.
G2 X-320.957 Y262.268 I1.5
G3 X-320.919 Y263.081 I-0.351 J0.424
X-321.732 Y263.043 I-0.389 J-0.389
G2 X-322.887 Y262.5 I-1.155 J0.957
G1 X-325.113
G2 X-326.268 Y263.043 J1.5
G3 X-327.081 Y263.081 I-0.424 J-0.351
X-327.043 Y262.268 I0.389 J-0.389
G2 X-326.5 Y261.113 I-0.957 J-1.155
G1 Y206.887
G2 X-327.043 Y205.732 I-1.5
G3 X-327.081 Y204.919 I0.351 J-0.424
X-326.268 Y204.957 I0.389 J0.389
G2 X-325.113 Y205.5 I1.155 J-0.957
G1 X-322.887
G2 X-321.732 Y204.957 J-1.5
G3 X-320.919 Y204.919 I0.424 J0.351
X-320.957 Y205.732 I-0.389 J0.389
G2 X-321.5 Y206.887 I0.957 J1.155
G1 Y208.
G3 X-321.6 Y208.1 I-0.1 F500.
G1 X-321.7
G18 G3 X-321.8 Z-0.9 K0.1
G0 Z5.
Y206.787
G1 Z1. F300.
Z-1.9
G2 X-321.7 Z-2. I0.1
G1 X-321.6 F500.
G17 G3 X-321.5 Y206.887 J0.1
G1 Y261.113 F320.
G2 X-320.957 Y262.268 I1.5
G3 X-320.919 Y263.081 I-0.351 J0.424
X-321.732 Y263.043 I-0.389 J-0.389
G2 X-322.887 Y262.5 I-1.155 J0.957
G1 X-325.113
G2 X-326.268 Y263.043 J1.5
G3 X-327.081 Y263.081 I-0.424 J-0.351
X-327.043 Y262.268 I0.389 J-0.389
G2 X-326.5 Y261.113 I-0.957 J-1.155
G1 Y206.887
G2 X-327.043 Y205.732 I-1.5
G3 X-327.081 Y204.919 I0.351 J-0.424
X-326.268 Y204.957 I0.389 J0.389
G2 X-325.113 Y205.5 I1.155 J-0.957
G1 X-322.887
G2 X-321.732 Y204.957 J-1.5
G3 X-320.919 Y204.919 I0.424 J0.351
X-320.957 Y205.732 I-0.389 J0.389
G2 X-321.5 Y206.887 I0.957 J1.155
G3 X-321.6 Y206.987 I-0.1 F500.
G1 X-321.7
G18 G3 X-321.8 Z-1.9 K0.1
G0 Z5.
Y206.787
G1 Z0. F300.
Z-2.9
G2 X-321.7 Z-3. I0.1
G1 X-321.6 F500.
G17 G3 X-321.5 Y206.887 J0.1
G1 Y261.113 F320.
G2 X-320.957 Y262.268 I1.5
G3 X-320.919 Y263.081 I-0.351 J0.424
X-321.732 Y263.043 I-0.389 J-0.389
G2 X-322.887 Y262.5 I-1.155 J0.957
G1 X-325.113
G2 X-326.268 Y263.043 J1.5
G3 X-327.081 Y263.081 I-0.424 J-0.351
X-327.043 Y262.268 I0.389 J-0.389
G2 X-326.5 Y261.113 I-0.957 J-1.155
G1 Y206.887
G2 X-327.043 Y205.732 I-1.5
G3 X-327.081 Y204.919 I0.351 J-0.424
X-326.268 Y204.957 I0.389 J0.389
G2 X-325.113 Y205.5 I1.155 J-0.957
G1 X-322.887
G2 X-321.732 Y204.957 J-1.5
G3 X-320.919 Y204.919 I0.424 J0.351
X-320.957 Y205.732 I-0.389 J0.389
G2 X-321.5 Y206.887 I0.957 J1.155
G3 X-321.6 Y206.987 I-0.1 F500.
G1 X-321.7
G18 G3 X-321.8 Z-2.9 K0.1
G0 Z5.
Y206.787
G1 Z-1. F300.
Z-3.9
G2 X-321.7 Z-4. I0.1
G1 X-321.6 F500.
G17 G3 X-321.5 Y206.887 J0.1
G1 Y261.113 F320.
G2 X-320.957 Y262.268 I1.5
G3 X-320.919 Y263.081 I-0.351 J0.424
X-321.732 Y263.043 I-0.389 J-0.389
G2 X-322.887 Y262.5 I-1.155 J0.957
G1 X-325.113
G2 X-326.268 Y263.043 J1.5
G3 X-327.081 Y263.081 I-0.424 J-0.351
X-327.043 Y262.268 I0.389 J-0.389
G2 X-326.5 Y261.113 I-0.957 J-1.155
G1 Y206.887
G2 X-327.043 Y205.732 I-1.5
G3 X-327.081 Y204.919 I0.351 J-0.424
X-326.268 Y204.957 I0.389 J0.389
G2 X-325.113 Y205.5 I1.155 J-0.957
G1 X-322.887
G2 X-321.732 Y204.957 J-1.5
G3 X-320.919 Y204.919 I0.424 J0.351
X-320.957 Y205.732 I-0.389 J0.389
G2 X-321.5 Y206.887 I0.957 J1.155
G3 X-321.6 Y206.987 I-0.1 F500.
G1 X-321.7
G18 G3 X-321.8 Z-3.9 K0.1
G0 Z5.
Y206.787
G1 Z-2. F300.
Z-4.9
G2 X-321.7 Z-5. I0.1
G1 X-321.6 F500.
G17 G3 X-321.5 Y206.887 J0.1
G1 Y261.113 F320.
G2 X-320.957 Y262.268 I1.5
G3 X-320.919 Y263.081 I-0.351 J0.424
X-321.732 Y263.043 I-0.389 J-0.389
G2 X-322.887 Y262.5 I-1.155 J0.957
G1 X-325.113
G2 X-326.268 Y263.043 J1.5
G3 X-327.081 Y263.081 I-0.424 J-0.351
X-327.043 Y262.268 I0.389 J-0.389
G2 X-326.5 Y261.113 I-0.957 J-1.155
G1 Y206.887
G2 X-327.043 Y205.732 I-1.5
G3 X-327.081 Y204.919 I0.351 J-0.424
X-326.268 Y204.957 I0.389 J0.389
G2 X-325.113 Y205.5 I1.155 J-0.957
G1 X-322.887
G2 X-321.732 Y204.957 J-1.5
G3 X-320.919 Y204.919 I0.424 J0.351
X-320.957 Y205.732 I-0.389 J0.389
G2 X-321.5 Y206.887 I0.957 J1.155
G3 X-321.6 Y206.987 I-0.1 F500.
G1 X-321.7
G18 G3 X-321.8 Z-4.9 K0.1
G0 Z15.
G17
G91
G28 Z0.
M5
G0
G28 X0. Y0.
M30
%
