%
O00001006
(T1  D=6. CR=0. - ZMIN=-8. - FLAT END MILL)
G90 G94 G17
G21
G91
G28 Z0.
G90
(2D CONTOUR2)
T1 M6
S5000 M3
G54
G0 X-323.8 Y259.9
G43 Z15. H1
G0 Z5.
G1 Z3. F160.
Z-1.567
G18 G2 X-323.7 Z-1.667 I0.1
G1 X-323.1 F480.
G17 G3 X-323. Y260. J0.1
G1 Y261. F1000.
X-325.
Y207.
X-323.
Y260.
G3 X-323.1 Y260.1 I-0.1 F480.
G1 X-323.7
G18 G3 X-323.8 Z-1.567 K0.1
G0 Z5.
Y259.9
G1 Z1.333 F160.
Z-3.233
G2 X-323.7 Z-3.333 I0.1
G1 X-323.1 F480.
G17 G3 X-323. Y260. J0.1
G1 Y261. F1000.
X-325.
Y207.
X-323.
Y260.
G3 X-323.1 Y260.1 I-0.1 F480.
G1 X-323.7
G18 G3 X-323.8 Z-3.233 K0.1
G0 Z5.
Y259.9
G1 Z-0.333 F160.
Z-4.9
G2 X-323.7 Z-5. I0.1
G1 X-323.1 F480.
G17 G3 X-323. Y260. J0.1
G1 Y261. F1000.
X-325.
Y207.
X-323.
Y260.
G3 X-323.1 Y260.1 I-0.1 F480.
G1 X-323.7
G18 G3 X-323.8 Z-4.9 K0.1
G0 Z15.
X-94.8 Y266.9
Z5.
G1 Z3. F160.
Z-1.775
G2 X-94.7 Z-1.875 I0.1
G1 X-94.1 F480.
G17 G3 X-94. Y267. J0.1
X-108. I-7. F1000.
X-94. I7.
X-94.1 Y267.1 I-0.1 F480.
G1 X-94.7
G18 G3 X-94.8 Z-1.775 K0.1
G0 Z5.
Y266.9
G1 Z1.125 F160.
Z-3.65
G2 X-94.7 Z-3.75 I0.1
G1 X-94.1 F480.
G17 G3 X-94. Y267. J0.1
X-108. I-7. F1000.
X-94. I7.
X-94.1 Y267.1 I-0.1 F480.
G1 X-94.7
G18 G3 X-94.8 Z-3.65 K0.1
G0 Z5.
Y266.9
G1 Z-0.75 F160.
Z-5.525
G2 X-94.7 Z-5.625 I0.1
G1 X-94.1 F480.
G17 G3 X-94. Y267. J0.1
X-108. I-7. F1000.
X-94. I7.
X-94.1 Y267.1 I-0.1 F480.
G1 X-94.7
G18 G3 X-94.8 Z-5.525 K0.1
G0 Z5.
Y266.9
G1 Z-2.625 F160.
Z-7.4
G2 X-94.7 Z-7.5 I0.1
G1 X-94.1 F480.
G17 G3 X-94. Y267. J0.1
X-108. I-7. F1000.
X-94. I7.
X-94.1 Y267.1 I-0.1 F480.
G1 X-94.7
G18 G3 X-94.8 Z-7.4 K0.1
G0 Z15.
X-234.8 Y225.4
Z5.
G1 Z3. F160.
Z-1.9
G2 X-234.7 Z-2. I0.1
G1 X-234.1 F480.
G17 G3 X-234. Y225.5 J0.1
G1 Y226.5 F1000.
G3 X-235. Y227.5 I-1.
G1 X-237.
G3 X-238. Y226.5 J-1.
G1 Y59.5
G3 X-237. Y58.5 I1.
G1 X-235.
G3 X-234. Y59.5 J1.
G1 Y225.5
G3 X-234.1 Y225.6 I-0.1 F480.
G1 X-234.7
G18 G3 X-234.8 Z-1.9 K0.1
G0 Z5.
Y225.4
G1 Z1. F160.
Z-3.9
G2 X-234.7 Z-4. I0.1
G1 X-234.1 F480.
G17 G3 X-234. Y225.5 J0.1
G1 Y226.5 F1000.
G3 X-235. Y227.5 I-1.
G1 X-237.
G3 X-238. Y226.5 J-1.
G1 Y59.5
G3 X-237. Y58.5 I1.
G1 X-235.
G3 X-234. Y59.5 J1.
G1 Y225.5
G3 X-234.1 Y225.6 I-0.1 F480.
G1 X-234.7
G18 G3 X-234.8 Z-3.9 K0.1
G0 Z5.
Y225.4
G1 Z-1. F160.
Z-5.9
G2 X-234.7 Z-6. I0.1
G1 X-234.1 F480.
G17 G3 X-234. Y225.5 J0.1
G1 Y226.5 F1000.
G3 X-235. Y227.5 I-1.
G1 X-237.
G3 X-238. Y226.5 J-1.
G1 Y59.5
G3 X-237. Y58.5 I1.
G1 X-235.
G3 X-234. Y59.5 J1.
G1 Y225.5
G3 X-234.1 Y225.6 I-0.1 F480.
G1 X-234.7
G18 G3 X-234.8 Z-5.9 K0.1
G0 Z5.
Y225.4
G1 Z-3. F160.
Z-7.9
G2 X-234.7 Z-8. I0.1
G1 X-234.1 F480.
G17 G3 X-234. Y225.5 J0.1
G1 Y226.5 F1000.
G3 X-235. Y227.5 I-1.
G1 X-237.
G3 X-238. Y226.5 J-1.
G1 Y59.5
G3 X-237. Y58.5 I1.
G1 X-235.
G3 X-234. Y59.5 J1.
G1 Y225.5
G3 X-234.1 Y225.6 I-0.1 F480.
G1 X-234.7
G18 G3 X-234.8 Z-7.9 K0.1
G0 Z5.
X-194.8 Y229.9
G1 Z3. F160.
Z-1.9
G2 X-194.7 Z-2. I0.1
G1 X-194.1 F480.
G17 G3 X-194. Y230. J0.1
G1 Y238.5 F1000.
G3 X-195. Y239.5 I-1.
G1 X-212.
G3 X-213. Y238.5 J-1.
G1 Y196.5
G3 X-212. Y195.5 I1.
G1 X-195.
G3 X-194. Y196.5 J1.
G1 Y230.
G3 X-194.1 Y230.1 I-0.1 F480.
G1 X-194.7
G18 G3 X-194.8 Z-1.9 K0.1
G0 Z5.
Y229.9
G1 Z1. F160.
Z-3.9
G2 X-194.7 Z-4. I0.1
G1 X-194.1 F480.
G17 G3 X-194. Y230. J0.1
G1 Y238.5 F1000.
G3 X-195. Y239.5 I-1.
G1 X-212.
G3 X-213. Y238.5 J-1.
G1 Y196.5
G3 X-212. Y195.5 I1.
G1 X-195.
G3 X-194. Y196.5 J1.
G1 Y230.
G3 X-194.1 Y230.1 I-0.1 F480.
G1 X-194.7
G18 G3 X-194.8 Z-3.9 K0.1
G0 Z5.
Y229.9
G1 Z-1. F160.
Z-5.9
G2 X-194.7 Z-6. I0.1
G1 X-194.1 F480.
G17 G3 X-194. Y230. J0.1
G1 Y238.5 F1000.
G3 X-195. Y239.5 I-1.
G1 X-212.
G3 X-213. Y238.5 J-1.
G1 Y196.5
G3 X-212. Y195.5 I1.
G1 X-195.
G3 X-194. Y196.5 J1.
G1 Y230.
G3 X-194.1 Y230.1 I-0.1 F480.
G1 X-194.7
G18 G3 X-194.8 Z-5.9 K0.1
G0 Z5.
Y229.9
G1 Z-3. F160.
Z-7.9
G2 X-194.7 Z-8. I0.1
G1 X-194.1 F480.
G17 G3 X-194. Y230. J0.1
G1 Y238.5 F1000.
G3 X-195. Y239.5 I-1.
G1 X-212.
G3 X-213. Y238.5 J-1.
G1 Y196.5
G3 X-212. Y195.5 I1.
G1 X-195.
G3 X-194. Y196.5 J1.
G1 Y230.
G3 X-194.1 Y230.1 I-0.1 F480.
G1 X-194.7
G18 G3 X-194.8 Z-7.9 K0.1
G0 Z5.
X-124.8 Y217.4
G1 Z3. F160.
Z-1.9
G2 X-124.7 Z-2. I0.1
G1 X-124.1 F480.
G17 G3 X-124. Y217.5 J0.1
G1 Y225. F1000.
G3 X-141. Y242. I-17.
G1 X-172.
G3 X-173. Y241. J-1.
G1 Y194.
G3 X-172. Y193. I1.
G1 X-141.
G3 X-124. Y210. J17.
G1 Y217.5
G3 X-124.1 Y217.6 I-0.1 F480.
G1 X-124.7
G18 G3 X-124.8 Z-1.9 K0.1
G0 Z5.
Y217.4
G1 Z1. F160.
Z-3.9
G2 X-124.7 Z-4. I0.1
G1 X-124.1 F480.
G17 G3 X-124. Y217.5 J0.1
G1 Y225. F1000.
G3 X-141. Y242. I-17.
G1 X-172.
G3 X-173. Y241. J-1.
G1 Y194.
G3 X-172. Y193. I1.
G1 X-141.
G3 X-124. Y210. J17.
G1 Y217.5
G3 X-124.1 Y217.6 I-0.1 F480.
G1 X-124.7
G18 G3 X-124.8 Z-3.9 K0.1
G0 Z5.
Y217.4
G1 Z-1. F160.
Z-5.9
G2 X-124.7 Z-6. I0.1
G1 X-124.1 F480.
G17 G3 X-124. Y217.5 J0.1
G1 Y225. F1000.
G3 X-141. Y242. I-17.
G1 X-172.
G3 X-173. Y241. J-1.
G1 Y194.
G3 X-172. Y193. I1.
G1 X-141.
G3 X-124. Y210. J17.
G1 Y217.5
G3 X-124.1 Y217.6 I-0.1 F480.
G1 X-124.7
G18 G3 X-124.8 Z-5.9 K0.1
G0 Z5.
Y217.4
G1 Z-3. F160.
Z-7.9
G2 X-124.7 Z-8. I0.1
G1 X-124.1 F480.
G17 G3 X-124. Y217.5 J0.1
G1 Y225. F1000.
G3 X-141. Y242. I-17.
G1 X-172.
G3 X-173. Y241. J-1.
G1 Y194.
G3 X-172. Y193. I1.
G1 X-141.
G3 X-124. Y210. J17.
G1 Y217.5
G3 X-124.1 Y217.6 I-0.1 F480.
G1 X-124.7
G18 G3 X-124.8 Z-7.9 K0.1
G0 Z5.
X-71.8 Y162.9
G1 Z3. F160.
Z-1.9
G2 X-71.7 Z-2. I0.1
G1 X-71.1 F480.
G17 G3 X-71. Y163. J0.1
G1 Y174. F1000.
G3 X-72. Y175. I-1.
G1 X-94.
G3 X-95. Y174. J-1.
G1 Y112.
G3 X-94. Y111. I1.
G1 X-72.
G3 X-71. Y112. J1.
G1 Y163.
G3 X-71.1 Y163.1 I-0.1 F480.
G1 X-71.7
G18 G3 X-71.8 Z-1.9 K0.1
G0 Z5.
Y162.9
G1 Z1. F160.
Z-3.9
G2 X-71.7 Z-4. I0.1
G1 X-71.1 F480.
G17 G3 X-71. Y163. J0.1
G1 Y174. F1000.
G3 X-72. Y175. I-1.
G1 X-94.
G3 X-95. Y174. J-1.
G1 Y112.
G3 X-94. Y111. I1.
G1 X-72.
G3 X-71. Y112. J1.
G1 Y163.
G3 X-71.1 Y163.1 I-0.1 F480.
G1 X-71.7
G18 G3 X-71.8 Z-3.9 K0.1
G0 Z5.
Y162.9
G1 Z-1. F160.
Z-5.9
G2 X-71.7 Z-6. I0.1
G1 X-71.1 F480.
G17 G3 X-71. Y163. J0.1
G1 Y174. F1000.
G3 X-72. Y175. I-1.
G1 X-94.
G3 X-95. Y174. J-1.
G1 Y112.
G3 X-94. Y111. I1.
G1 X-72.
G3 X-71. Y112. J1.
G1 Y163.
G3 X-71.1 Y163.1 I-0.1 F480.
G1 X-71.7
G18 G3 X-71.8 Z-5.9 K0.1
G0 Z5.
Y162.9
G1 Z-3. F160.
Z-7.9
G2 X-71.7 Z-8. I0.1
G1 X-71.1 F480.
G17 G3 X-71. Y163. J0.1
G1 Y174. F1000.
G3 X-72. Y175. I-1.
G1 X-94.
G3 X-95. Y174. J-1.
G1 Y112.
G3 X-94. Y111. I1.
G1 X-72.
G3 X-71. Y112. J1.
G1 Y163.
G3 X-71.1 Y163.1 I-0.1 F480.
G1 X-71.7
G18 G3 X-71.8 Z-7.9 K0.1
G0 Z5.
X-141.8 Y142.9
G1 Z3. F160.
Z-1.9
G2 X-141.7 Z-2. I0.1
G1 X-141.1 F480.
G17 G3 X-141. Y143. J0.1
G1 Y150.5 F1000.
G3 X-158. Y167.5 I-17.
G1 X-204.
G3 X-205. Y166.5 J-1.
G1 Y119.5
G3 X-204. Y118.5 I1.
G1 X-158.
G3 X-141. Y135.5 J17.
G1 Y143.
G3 X-141.1 Y143.1 I-0.1 F480.
G1 X-141.7
G18 G3 X-141.8 Z-1.9 K0.1
G0 Z5.
Y142.9
G1 Z1. F160.
Z-3.9
G2 X-141.7 Z-4. I0.1
G1 X-141.1 F480.
G17 G3 X-141. Y143. J0.1
G1 Y150.5 F1000.
G3 X-158. Y167.5 I-17.
G1 X-204.
G3 X-205. Y166.5 J-1.
G1 Y119.5
G3 X-204. Y118.5 I1.
G1 X-158.
G3 X-141. Y135.5 J17.
G1 Y143.
G3 X-141.1 Y143.1 I-0.1 F480.
G1 X-141.7
G18 G3 X-141.8 Z-3.9 K0.1
G0 Z5.
Y142.9
G1 Z-1. F160.
Z-5.9
G2 X-141.7 Z-6. I0.1
G1 X-141.1 F480.
G17 G3 X-141. Y143. J0.1
G1 Y150.5 F1000.
G3 X-158. Y167.5 I-17.
G1 X-204.
G3 X-205. Y166.5 J-1.
G1 Y119.5
G3 X-204. Y118.5 I1.
G1 X-158.
G3 X-141. Y135.5 J17.
G1 Y143.
G3 X-141.1 Y143.1 I-0.1 F480.
G1 X-141.7
G18 G3 X-141.8 Z-5.9 K0.1
G0 Z5.
Y142.9
G1 Z-3. F160.
Z-7.9
G2 X-141.7 Z-8. I0.1
G1 X-141.1 F480.
G17 G3 X-141. Y143. J0.1
G1 Y150.5 F1000.
G3 X-158. Y167.5 I-17.
G1 X-204.
G3 X-205. Y166.5 J-1.
G1 Y119.5
G3 X-204. Y118.5 I1.
G1 X-158.
G3 X-141. Y135.5 J17.
G1 Y143.
G3 X-141.1 Y143.1 I-0.1 F480.
G1 X-141.7
G18 G3 X-141.8 Z-7.9 K0.1
G0 Z5.
X-191.1 Y46.8
G1 Z3. F160.
Z-1.9
G19 G2 Y46.7 Z-2. J-0.1
G1 Y46.1 F480.
G17 G3 X-191. Y46. I0.1
G1 X-60. F1000.
G3 X-59. Y47. J1.
G1 Y49.
G3 X-60. Y50. I-1.
G1 X-192.
G3 X-193. Y49. J-1.
G1 Y47.
G3 X-192. Y46. I1.
G1 X-191.
G3 X-190.9 Y46.1 J0.1 F480.
G1 Y46.7
G19 G3 Y46.8 Z-1.9 K0.1
G0 Z5.
X-191.1
G1 Z1. F160.
Z-3.9
G2 Y46.7 Z-4. J-0.1
G1 Y46.1 F480.
G17 G3 X-191. Y46. I0.1
G1 X-60. F1000.
G3 X-59. Y47. J1.
G1 Y49.
G3 X-60. Y50. I-1.
G1 X-192.
G3 X-193. Y49. J-1.
G1 Y47.
G3 X-192. Y46. I1.
G1 X-191.
G3 X-190.9 Y46.1 J0.1 F480.
G1 Y46.7
G19 G3 Y46.8 Z-3.9 K0.1
G0 Z5.
X-191.1
G1 Z-1. F160.
Z-5.9
G2 Y46.7 Z-6. J-0.1
G1 Y46.1 F480.
G17 G3 X-191. Y46. I0.1
G1 X-60. F1000.
G3 X-59. Y47. J1.
G1 Y49.
G3 X-60. Y50. I-1.
G1 X-192.
G3 X-193. Y49. J-1.
G1 Y47.
G3 X-192. Y46. I1.
G1 X-191.
G3 X-190.9 Y46.1 J0.1 F480.
G1 Y46.7
G19 G3 Y46.8 Z-5.9 K0.1
G0 Z5.
X-191.1
G1 Z-3. F160.
Z-7.9
G2 Y46.7 Z-8. J-0.1
G1 Y46.1 F480.
G17 G3 X-191. Y46. I0.1
G1 X-60. F1000.
G3 X-59. Y47. J1.
G1 Y49.
G3 X-60. Y50. I-1.
G1 X-192.
G3 X-193. Y49. J-1.
G1 Y47.
G3 X-192. Y46. I1.
G1 X-191.
G3 X-190.9 Y46.1 J0.1 F480.
G1 Y46.7
G19 G3 Y46.8 Z-7.9 K0.1
G0 Z5.
X-94.8 Y18.9
G1 Z3. F160.
Z-1.9
G18 G2 X-94.7 Z-2. I0.1
G1 X-94.1 F480.
G17 G3 X-94. Y19. J0.1
X-108. I-7. F1000.
X-94. I7.
X-94.1 Y19.1 I-0.1 F480.
G1 X-94.7
G18 G3 X-94.8 Z-1.9 K0.1
G0 Z5.
Y18.9
G1 Z1. F160.
Z-3.9
G2 X-94.7 Z-4. I0.1
G1 X-94.1 F480.
G17 G3 X-94. Y19. J0.1
X-108. I-7. F1000.
X-94. I7.
X-94.1 Y19.1 I-0.1 F480.
G1 X-94.7
G18 G3 X-94.8 Z-3.9 K0.1
G0 Z5.
Y18.9
G1 Z-1. F160.
Z-5.9
G2 X-94.7 Z-6. I0.1
G1 X-94.1 F480.
G17 G3 X-94. Y19. J0.1
X-108. I-7. F1000.
X-94. I7.
X-94.1 Y19.1 I-0.1 F480.
G1 X-94.7
G18 G3 X-94.8 Z-5.9 K0.1
G0 Z5.
Y18.9
G1 Z-3. F160.
Z-7.9
G2 X-94.7 Z-8. I0.1
G1 X-94.1 F480.
G17 G3 X-94. Y19. J0.1
X-108. I-7. F1000.
X-94. I7.
X-94.1 Y19.1 I-0.1 F480.
G1 X-94.7
G18 G3 X-94.8 Z-7.9 K0.1
G0 Z5.
X-370.9 Y157.2
G1 Z3. F160.
Z-1.9
G19 G3 Y157.3 Z-2. J0.1
G1 Y157.9 F480.
G17 G3 X-371. Y158. I-0.1
G1 X-385. F1000.
G3 X-386. Y157. J-1.
G1 Y129.
G3 X-385. Y128. I1.
G1 X-290.
G3 X-289. Y129. J1.
G1 Y157.
G3 X-290. Y158. I-1.
G1 X-371.
G3 X-371.1 Y157.9 J-0.1 F480.
G1 Y157.3
G19 G2 Y157.2 Z-1.9 K0.1
G0 Z5.
X-370.9
G1 Z1. F160.
Z-3.9
G3 Y157.3 Z-4. J0.1
G1 Y157.9 F480.
G17 G3 X-371. Y158. I-0.1
G1 X-385. F1000.
G3 X-386. Y157. J-1.
G1 Y129.
G3 X-385. Y128. I1.
G1 X-290.
G3 X-289. Y129. J1.
G1 Y157.
G3 X-290. Y158. I-1.
G1 X-371.
G3 X-371.1 Y157.9 J-0.1 F480.
G1 Y157.3
G19 G2 Y157.2 Z-3.9 K0.1
G0 Z5.
X-370.9
G1 Z-1. F160.
Z-5.9
G3 Y157.3 Z-6. J0.1
G1 Y157.9 F480.
G17 G3 X-371. Y158. I-0.1
G1 X-385. F1000.
G3 X-386. Y157. J-1.
G1 Y129.
G3 X-385. Y128. I1.
G1 X-290.
G3 X-289. Y129. J1.
G1 Y157.
G3 X-290. Y158. I-1.
G1 X-371.
G3 X-371.1 Y157.9 J-0.1 F480.
G1 Y157.3
G19 G2 Y157.2 Z-5.9 K0.1
G0 Z5.
X-370.9
G1 Z-3. F160.
Z-7.9
G3 Y157.3 Z-8. J0.1
G1 Y157.9 F480.
G17 G3 X-371. Y158. I-0.1
G1 X-385. F1000.
G3 X-386. Y157. J-1.
G1 Y129.
G3 X-385. Y128. I1.
G1 X-290.
G3 X-289. Y129. J1.
G1 Y157.
G3 X-290. Y158. I-1.
G1 X-371.
G3 X-371.1 Y157.9 J-0.1 F480.
G1 Y157.3
G19 G2 Y157.2 Z-7.9 K0.1
G0 Z15.
G17
G91
G28 Z0.
M5
G0
G28 X0. Y0.
M30
%
