%
O00001007
(T1  D=6. CR=0. - ZMIN=-8.1 - FLAT END MILL)
G90 G94 G17
G21
G91
G28 Z0.
G90
(2D CONTOUR2 (3))
T1 M6
S5000 M3
G54
G0 X-323.8 Y260.1
G43 Z15. H1
G0 Z5.
G1 Z1. F160.
Z-5.
G18 G2 X-323.7 Z-5.1 I0.1
G1 X-323.1 F480.
G17 G2 X-323. Y260. J-0.1
G1 Y207. F1000.
X-325.
Y261.
X-323.
Y260.
G2 X-323.1 Y259.9 I-0.1 F480.
G1 X-323.7
G18 G3 X-323.8 Z-5. K0.1
G0 Z15.
X-94.8 Y267.1
Z5.
G1 Z1. F160.
Z-7.5
G2 X-94.7 Z-7.6 I0.1
G1 X-94.1 F480.
G17 G2 X-94. Y267. J-0.1
X-108. I-7. F1000.
X-94. I7.
X-94.1 Y266.9 I-0.1 F480.
G1 X-94.7
G18 G3 X-94.8 Z-7.5 K0.1
G0 Z15.
X-234.8 Y60.6
Z5.
G1 Z1. F160.
Z-8.
G2 X-234.7 Z-8.1 I0.1
G1 X-234.1 F480.
G17 G2 X-234. Y60.5 J-0.1
G1 Y59.5 F1000.
G2 X-235. Y58.5 I-1.
G1 X-237.
G2 X-238. Y59.5 J1.
G1 Y226.5
G2 X-237. Y227.5 I1.
G1 X-235.
G2 X-234. Y226.5 J-1.
G1 Y60.5
G2 X-234.1 Y60.4 I-0.1 F480.
G1 X-234.7
G18 G3 X-234.8 Z-8. K0.1
G0 Z5.
X-59.8 Y48.1
G1 Z1. F160.
Z-8.
G2 X-59.7 Z-8.1 I0.1
G1 X-59.1 F480.
G17 G2 X-59. Y48. J-0.1
G1 Y47. F1000.
G2 X-60. Y46. I-1.
G1 X-192.
G2 X-193. Y47. J1.
G1 Y49.
G2 X-192. Y50. I1.
G1 X-60.
G2 X-59. Y49. J-1.
G1 Y48.
G2 X-59.1 Y47.9 I-0.1 F480.
G1 X-59.7
G18 G3 X-59.8 Z-8. K0.1
G0 Z5.
X-94.8 Y19.1
G1 Z1. F160.
Z-8.
G2 X-94.7 Z-8.1 I0.1
G1 X-94.1 F480.
G17 G2 X-94. Y19. J-0.1
X-108. I-7. F1000.
X-94. I7.
X-94.1 Y18.9 I-0.1 F480.
G1 X-94.7
G18 G3 X-94.8 Z-8. K0.1
G0 Z5.
X-71.8 Y123.1
G1 Z1. F160.
Z-8.
G2 X-71.7 Z-8.1 I0.1
G1 X-71.1 F480.
G17 G2 X-71. Y123. J-0.1
G1 Y112. F1000.
G2 X-72. Y111. I-1.
G1 X-94.
G2 X-95. Y112. J1.
G1 Y174.
G2 X-94. Y175. I1.
G1 X-72.
G2 X-71. Y174. J-1.
G1 Y123.
G2 X-71.1 Y122.9 I-0.1 F480.
G1 X-71.7
G18 G3 X-71.8 Z-8. K0.1
G0 Z5.
X-180.4 Y119.3
G1 Z1. F160.
Z-8.
G19 G2 Y119.2 Z-8.1 J-0.1
G1 Y118.6 F480.
G17 G2 X-180.5 Y118.5 I-0.1
G1 X-204. F1000.
G2 X-205. Y119.5 J1.
G1 Y166.5
G2 X-204. Y167.5 I1.
G1 X-158.
G2 X-141. Y150.5 J-17.
G1 Y135.5
G2 X-158. Y118.5 I-17.
G1 X-180.5
G2 X-180.6 Y118.6 J0.1 F480.
G1 Y119.2
G19 G3 Y119.3 Z-8. K0.1
G0 Z5.
X-124.8 Y217.6
G1 Z1. F160.
Z-8.
G18 G2 X-124.7 Z-8.1 I0.1
G1 X-124.1 F480.
G17 G2 X-124. Y217.5 J-0.1
G1 Y210. F1000.
G2 X-141. Y193. I-17.
G1 X-172.
G2 X-173. Y194. J1.
G1 Y241.
G2 X-172. Y242. I1.
G1 X-141.
G2 X-124. Y225. J-17.
G1 Y217.5
G2 X-124.1 Y217.4 I-0.1 F480.
G1 X-124.7
G18 G3 X-124.8 Z-8. K0.1
G0 Z5.
X-194.8 Y205.1
G1 Z1. F160.
Z-8.
G2 X-194.7 Z-8.1 I0.1
G1 X-194.1 F480.
G17 G2 X-194. Y205. J-0.1
G1 Y196.5 F1000.
G2 X-195. Y195.5 I-1.
G1 X-212.
G2 X-213. Y196.5 J1.
G1 Y238.5
G2 X-212. Y239.5 I1.
G1 X-195.
G2 X-194. Y238.5 J-1.
G1 Y205.
G2 X-194.1 Y204.9 I-0.1 F480.
G1 X-194.7
G18 G3 X-194.8 Z-8. K0.1
G0 Z5.
X-289.8 Y143.1
G1 Z1. F160.
Z-8.
G2 X-289.7 Z-8.1 I0.1
G1 X-289.1 F480.
G17 G2 X-289. Y143. J-0.1
G1 Y129. F1000.
G2 X-290. Y128. I-1.
G1 X-385.
G2 X-386. Y129. J1.
G1 Y157.
G2 X-385. Y158. I1.
G1 X-290.
G2 X-289. Y157. J-1.
G1 Y143.
G2 X-289.1 Y142.9 I-0.1 F480.
G1 X-289.7
G18 G3 X-289.8 Z-8. K0.1
G0 Z15.
G17
G91
G28 Z0.
M5
G0
G28 X0. Y0.
M30
%
