%
O00001009
(T1  D=6. CR=0. - ZMIN=-8.2 - FLAT END MILL)
G90 G94 G17
G21
G91
G28 Z0.
G90
(2D CONTOUR2 (2))
T1 M6
S5000 M3
G54
G0 X-277.8 Y106.456
G43 Z15. H1
G0 Z5.
G1 Z2.5 F160.
Z-1.267
G18 G2 X-277.7 Z-1.367 I0.1
G1 X-277.1 F480.
G17 G3 X-277. Y106.556 J0.1
G1 Y109. F1000.
G3 X-278. Y110. I-1.
G1 X-409.
G2 X-412. Y113. J3.
G1 Y173.
G2 X-409. Y176. I3.
G1 X-278.
G3 X-277. Y177. J1.
G1 Y285.
G2 X-274. Y288. I3.
G1 X-242.
G2 X-239. Y285. J-3.
G1 Y256.
X-126.
Y285.
G2 X-123. Y288. I3.
G1 X-63.
G2 X-60. Y285. J-3.
G1 Y256.
X-1.
G2 X2. Y253. J-3.
G1 Y239.5
G2 X-1. Y236.5 I-3.
G1 X-37.
G3 X-38. Y235.5 J-1.
G1 Y211.
G3 X-37. Y210. I1.
G1 X-1.
G2 X2. Y207. J-3.
G1 Y79.
G2 X-1. Y76. I-3.
G1 X-37.
G3 X-38. Y75. J-1.
G1 Y50.5
G3 X-37. Y49.5 I1.
G1 X-1.
G2 X2. Y46.5 J-3.
G1 Y33.
G2 X-1. Y30. I-3.
G1 X-60.
Y1.
G2 X-63. Y-2. I-3.
G1 X-123.
G2 X-126. Y1. J3.
G1 Y30.
X-239.
Y1.
G2 X-242. Y-2. I-3.
G1 X-274.
G2 X-277. Y1. J3.
G1 Y106.556
G3 X-277.1 Y106.656 I-0.1 F480.
G1 X-277.7
G18 G3 X-277.8 Z-1.267 K0.1
G0 Z5.
X-282.384 Y104.758
G1 Z2.5 F160.
Z-1.267
X-282.389 Y104.752 Z-1.305
X-282.404 Y104.737 Z-1.337
X-282.427 Y104.714 Z-1.359
X-282.454 Y104.687 Z-1.367
X-282.879 Y104.263 F480.
G17 G3 Y104.121 I0.071 J-0.071
G2 X-282. Y102. I-2.121 J-2.121 F1000.
G1 Y40.
G2 X-285. Y37. I-3.
G1 X-401.
G2 X-404. Y40. J3.
G1 Y102.
G2 X-401. Y105. I3.
G1 X-285.
G2 X-282.879 Y104.121 J-3.
G3 X-282.737 I0.071 J0.071 F480.
G1 X-282.313 Y104.546
X-282.286 Y104.573 Z-1.359
X-282.263 Y104.596 Z-1.337
X-282.248 Y104.611 Z-1.305
X-282.242 Y104.616 Z-1.267
G0 Z5.
X-282.384 Y104.758
G1 Z1.133 F160.
Z-2.633
X-282.389 Y104.752 Z-2.672
X-282.404 Y104.737 Z-2.704
X-282.427 Y104.714 Z-2.726
X-282.454 Y104.687 Z-2.733
X-282.879 Y104.263 F480.
G3 Y104.121 I0.071 J-0.071
G2 X-282. Y102. I-2.121 J-2.121 F1000.
G1 Y40.
G2 X-285. Y37. I-3.
G1 X-401.
G2 X-404. Y40. J3.
G1 Y102.
G2 X-401. Y105. I3.
G1 X-285.
G2 X-282.879 Y104.121 J-3.
G3 X-282.737 I0.071 J0.071 F480.
G1 X-282.313 Y104.546
X-282.286 Y104.573 Z-2.726
X-282.263 Y104.596 Z-2.704
X-282.248 Y104.611 Z-2.672
X-282.242 Y104.616 Z-2.633
G0 Z5.
X-289.84 Y180.201
G1 Z2.5 F160.
Z-1.267
Y180.208 Z-1.305
Y180.23 Z-1.337
X-289.841 Y180.263 Z-1.359
Y180.301 Z-1.367
X-289.845 Y180.901 F480.
G3 X-289.946 Y181. I-0.1 J-0.001
G2 X-290. I-0.054 J8. F1000.
G1 X-380.
G2 X-388. Y189. J8.
G1 Y279.
G2 X-380. Y287. I8.
G1 X-290.
G2 X-282. Y279. J-8.
G1 Y189.
G2 X-289.946 Y181. I-8.
G3 X-290.045 Y180.9 I0.001 J-0.1 F480.
G1 X-290.041 Y180.3
Y180.261 Z-1.359
X-290.04 Y180.229 Z-1.337
Y180.207 Z-1.305
Y180.2 Z-1.267
G0 Z5.
X-289.9
G1 Z1.133 F160.
Z-2.633
G19 G3 Y180.3 Z-2.733 J0.1
G1 Y180.9 F480.
G17 G3 X-290. Y181. I-0.1
G1 X-380. F1000.
G2 X-388. Y189. J8.
G1 Y279.
G2 X-380. Y287. I8.
G1 X-290.
G2 X-282. Y279. J-8.
G1 Y189.
G2 X-290. Y181. I-8.
G3 X-290.1 Y180.9 J-0.1 F480.
G1 Y180.3
G19 G2 Y180.2 Z-2.633 K0.1
G0 Z5.
X-277.8 Y180.201
G1 Z1.133 F160.
Z-2.633
G18 G2 X-277.7 Z-2.733 I0.1
G1 X-277.1 F480.
G17 G3 X-277. Y180.301 J0.1
G1 Y285. F1000.
G2 X-274. Y288. I3.
G1 X-242.
G2 X-239. Y285. J-3.
G1 Y256.
X-126.
Y285.
G2 X-123. Y288. I3.
G1 X-63.
G2 X-60. Y285. J-3.
G1 Y256.
X-1.
G2 X2. Y253. J-3.
G1 Y239.5
G2 X-1. Y236.5 I-3.
G1 X-37.
G3 X-38. Y235.5 J-1.
G1 Y211.
G3 X-37. Y210. I1.
G1 X-1.
G2 X2. Y207. J-3.
G1 Y79.
G2 X-1. Y76. I-3.
G1 X-37.
G3 X-38. Y75. J-1.
G1 Y50.5
G3 X-37. Y49.5 I1.
G1 X-1.
G2 X2. Y46.5 J-3.
G1 Y33.
G2 X-1. Y30. I-3.
G1 X-60.
Y1.
G2 X-63. Y-2. I-3.
G1 X-123.
G2 X-126. Y1. J3.
G1 Y30.
X-239.
Y1.
G2 X-242. Y-2. I-3.
G1 X-274.
G2 X-277. Y1. J3.
G1 Y109.
G3 X-278. Y110. I-1.
G1 X-409.
G2 X-412. Y113. J3.
G1 Y173.
G2 X-409. Y176. I3.
G1 X-278.
G3 X-277. Y177. J1.
G1 Y180.301
G3 X-277.1 Y180.401 I-0.1 F480.
G1 X-277.7
G18 G3 X-277.8 Z-2.633 K0.1
G0 Z5.
Y180.201
G1 Z-0.233 F160.
Z-4.
G2 X-277.7 Z-4.1 I0.1
G1 X-277.1 F480.
G17 G3 X-277. Y180.301 J0.1
G1 Y285. F1000.
G2 X-274. Y288. I3.
G1 X-242.
G2 X-239. Y285. J-3.
G1 Y256.
X-126.
Y285.
G2 X-123. Y288. I3.
G1 X-63.
G2 X-60. Y285. J-3.
G1 Y256.
X-1.
G2 X2. Y253. J-3.
G1 Y239.5
G2 X-1. Y236.5 I-3.
G1 X-37.
G3 X-38. Y235.5 J-1.
G1 Y211.
G3 X-37. Y210. I1.
G1 X-1.
G2 X2. Y207. J-3.
G1 Y79.
G2 X-1. Y76. I-3.
G1 X-37.
G3 X-38. Y75. J-1.
G1 Y50.5
G3 X-37. Y49.5 I1.
G1 X-1.
G2 X2. Y46.5 J-3.
G1 Y33.
G2 X-1. Y30. I-3.
G1 X-60.
Y1.
G2 X-63. Y-2. I-3.
G1 X-123.
G2 X-126. Y1. J3.
G1 Y30.
X-239.
Y1.
G2 X-242. Y-2. I-3.
G1 X-274.
G2 X-277. Y1. J3.
G1 Y109.
G3 X-278. Y110. I-1.
G1 X-409.
G2 X-412. Y113. J3.
G1 Y173.
G2 X-409. Y176. I3.
G1 X-278.
G3 X-277. Y177. J1.
G1 Y180.301
G3 X-277.1 Y180.401 I-0.1 F480.
G1 X-277.7
G18 G3 X-277.8 Z-4. K0.1
G0 Z5.
X-283.707 Y182.848
G1 Z-0.233 F160.
Z-4.
X-283.712 Y182.854 Z-4.038
X-283.727 Y182.869 Z-4.071
X-283.75 Y182.892 Z-4.092
X-283.777 Y182.919 Z-4.1
X-284.202 Y183.343 F480.
G17 G3 X-284.343 I-0.071 J-0.071
G2 X-290. Y181. I-5.657 J5.657 F1000.
G1 X-380.
G2 X-388. Y189. J8.
G1 Y279.
G2 X-380. Y287. I8.
G1 X-290.
G2 X-282. Y279. J-8.
G1 Y189.
G2 X-284.343 Y183.343 I-8.
G3 Y183.202 I0.071 J-0.071 F480.
G1 X-283.919 Y182.777
X-283.892 Y182.75 Z-4.092
X-283.869 Y182.727 Z-4.071
X-283.854 Y182.712 Z-4.038
X-283.848 Y182.707 Z-4.
G0 Z5.
X-283.707 Y182.848
G1 Z-1.6 F160.
Z-5.367
X-283.712 Y182.854 Z-5.405
X-283.727 Y182.869 Z-5.437
X-283.75 Y182.892 Z-5.459
X-283.777 Y182.919 Z-5.467
X-284.202 Y183.343 F480.
G3 X-284.343 I-0.071 J-0.071
G2 X-290. Y181. I-5.657 J5.657 F1000.
G1 X-380.
G2 X-388. Y189. J8.
G1 Y279.
G2 X-380. Y287. I8.
G1 X-290.
G2 X-282. Y279. J-8.
G1 Y189.
G2 X-284.343 Y183.343 I-8.
G3 Y183.202 I0.071 J-0.071 F480.
G1 X-283.919 Y182.777
X-283.892 Y182.75 Z-5.459
X-283.869 Y182.727 Z-5.437
X-283.854 Y182.712 Z-5.405
X-283.848 Y182.707 Z-5.367
G0 Z5.
X-282.384 Y104.758
G1 Z-0.233 F160.
Z-4.
X-282.389 Y104.752 Z-4.038
X-282.404 Y104.737 Z-4.071
X-282.427 Y104.714 Z-4.092
X-282.454 Y104.687 Z-4.1
X-282.879 Y104.263 F480.
G3 Y104.121 I0.071 J-0.071
G2 X-282. Y102. I-2.121 J-2.121 F1000.
G1 Y40.
G2 X-285. Y37. I-3.
G1 X-401.
G2 X-404. Y40. J3.
G1 Y102.
G2 X-401. Y105. I3.
G1 X-285.
G2 X-282.879 Y104.121 J-3.
G3 X-282.737 I0.071 J0.071 F480.
G1 X-282.313 Y104.546
X-282.286 Y104.573 Z-4.092
X-282.263 Y104.596 Z-4.071
X-282.248 Y104.611 Z-4.038
X-282.242 Y104.616 Z-4.
G0 Z5.
X-282.384 Y104.758
G1 Z-1.6 F160.
Z-5.367
X-282.389 Y104.752 Z-5.405
X-282.404 Y104.737 Z-5.437
X-282.427 Y104.714 Z-5.459
X-282.454 Y104.687 Z-5.467
X-282.879 Y104.263 F480.
G3 Y104.121 I0.071 J-0.071
G2 X-282. Y102. I-2.121 J-2.121 F1000.
G1 Y40.
G2 X-285. Y37. I-3.
G1 X-401.
G2 X-404. Y40. J3.
G1 Y102.
G2 X-401. Y105. I3.
G1 X-285.
G2 X-282.879 Y104.121 J-3.
G3 X-282.737 I0.071 J0.071 F480.
G1 X-282.313 Y104.546
X-282.286 Y104.573 Z-5.459
X-282.263 Y104.596 Z-5.437
X-282.248 Y104.611 Z-5.405
X-282.242 Y104.616 Z-5.367
G0 Z5.
X-277.8 Y106.456
G1 Z-1.6 F160.
Z-5.367
G18 G2 X-277.7 Z-5.467 I0.1
G1 X-277.1 F480.
G17 G3 X-277. Y106.556 J0.1
G1 Y109. F1000.
G3 X-278. Y110. I-1.
G1 X-409.
G2 X-412. Y113. J3.
G1 Y173.
G2 X-409. Y176. I3.
G1 X-278.
G3 X-277. Y177. J1.
G1 Y285.
G2 X-274. Y288. I3.
G1 X-242.
G2 X-239. Y285. J-3.
G1 Y256.
X-126.
Y285.
G2 X-123. Y288. I3.
G1 X-63.
G2 X-60. Y285. J-3.
G1 Y256.
X-1.
G2 X2. Y253. J-3.
G1 Y239.5
G2 X-1. Y236.5 I-3.
G1 X-37.
G3 X-38. Y235.5 J-1.
G1 Y211.
G3 X-37. Y210. I1.
G1 X-1.
G2 X2. Y207. J-3.
G1 Y79.
G2 X-1. Y76. I-3.
G1 X-37.
G3 X-38. Y75. J-1.
G1 Y50.5
G3 X-37. Y49.5 I1.
G1 X-1.
G2 X2. Y46.5 J-3.
G1 Y33.
G2 X-1. Y30. I-3.
G1 X-60.
Y1.
G2 X-63. Y-2. I-3.
G1 X-123.
G2 X-126. Y1. J3.
G1 Y30.
X-239.
Y1.
G2 X-242. Y-2. I-3.
G1 X-274.
G2 X-277. Y1. J3.
G1 Y106.556
G3 X-277.1 Y106.656 I-0.1 F480.
G1 X-277.7
G18 G3 X-277.8 Z-5.367 K0.1
G0 Z5.
Y106.456
G1 Z-2.967 F160.
Z-6.733
G2 X-277.7 Z-6.833 I0.1
G1 X-277.1 F480.
G17 G3 X-277. Y106.556 J0.1
G1 Y109. F1000.
G3 X-278. Y110. I-1.
G1 X-409.
G2 X-412. Y113. J3.
G1 Y173.
G2 X-409. Y176. I3.
G1 X-278.
G3 X-277. Y177. J1.
G1 Y285.
G2 X-274. Y288. I3.
G1 X-242.
G2 X-239. Y285. J-3.
G1 Y256.
X-126.
Y285.
G2 X-123. Y288. I3.
G1 X-63.
G2 X-60. Y285. J-3.
G1 Y256.
X-1.
G2 X2. Y253. J-3.
G1 Y239.5
G2 X-1. Y236.5 I-3.
G1 X-37.
G3 X-38. Y235.5 J-1.
G1 Y211.
G3 X-37. Y210. I1.
G1 X-1.
G2 X2. Y207. J-3.
G1 Y79.
G2 X-1. Y76. I-3.
G1 X-37.
G3 X-38. Y75. J-1.
G1 Y50.5
G3 X-37. Y49.5 I1.
G1 X-1.
G2 X2. Y46.5 J-3.
G1 Y33.
G2 X-1. Y30. I-3.
G1 X-60.
Y1.
G2 X-63. Y-2. I-3.
G1 X-123.
G2 X-126. Y1. J3.
G1 Y30.
X-239.
Y1.
G2 X-242. Y-2. I-3.
G1 X-274.
G2 X-277. Y1. J3.
G1 Y106.556
G3 X-277.1 Y106.656 I-0.1 F480.
G1 X-277.7
G18 G3 X-277.8 Z-6.733 K0.1
G0 Z5.
X-282.384 Y104.758
G1 Z-2.967 F160.
Z-6.733
X-282.389 Y104.752 Z-6.772
X-282.404 Y104.737 Z-6.804
X-282.427 Y104.714 Z-6.826
X-282.454 Y104.687 Z-6.833
X-282.879 Y104.263 F480.
G17 G3 Y104.121 I0.071 J-0.071
G2 X-282. Y102. I-2.121 J-2.121 F1000.
G1 Y40.
G2 X-285. Y37. I-3.
G1 X-401.
G2 X-404. Y40. J3.
G1 Y102.
G2 X-401. Y105. I3.
G1 X-285.
G2 X-282.879 Y104.121 J-3.
G3 X-282.737 I0.071 J0.071 F480.
G1 X-282.313 Y104.546
X-282.286 Y104.573 Z-6.826
X-282.263 Y104.596 Z-6.804
X-282.248 Y104.611 Z-6.772
X-282.242 Y104.616 Z-6.733
G0 Z5.
X-282.384 Y104.758
G1 Z-4.333 F160.
Z-8.1
X-282.389 Y104.752 Z-8.138
X-282.404 Y104.737 Z-8.171
X-282.427 Y104.714 Z-8.192
X-282.454 Y104.687 Z-8.2
X-282.879 Y104.263 F480.
G3 Y104.121 I0.071 J-0.071
G2 X-282. Y102. I-2.121 J-2.121 F1000.
G1 Y40.
G2 X-285. Y37. I-3.
G1 X-339.
Z-7.2
X-347.
Z-8.2 F160.
X-401. F1000.
G2 X-404. Y40. J3.
G1 Y102.
G2 X-401. Y105. I3.
G1 X-347.
Z-7.2
X-339.
Z-8.2 F160.
X-285. F1000.
G2 X-282.879 Y104.121 J-3.
G3 X-282.737 I0.071 J0.071 F480.
G1 X-282.313 Y104.546
X-282.286 Y104.573 Z-8.192
X-282.263 Y104.596 Z-8.171
X-282.248 Y104.611 Z-8.138
X-282.242 Y104.616 Z-8.1
G0 Z5.
X-289.84 Y180.201
G1 Z-2.967 F160.
Z-6.733
Y180.208 Z-6.772
Y180.23 Z-6.804
X-289.841 Y180.263 Z-6.826
Y180.301 Z-6.833
X-289.845 Y180.901 F480.
G3 X-289.946 Y181. I-0.1 J-0.001
G2 X-290. I-0.054 J8. F1000.
G1 X-380.
G2 X-388. Y189. J8.
G1 Y279.
G2 X-380. Y287. I8.
G1 X-290.
G2 X-282. Y279. J-8.
G1 Y189.
G2 X-289.946 Y181. I-8.
G3 X-290.045 Y180.9 I0.001 J-0.1 F480.
G1 X-290.041 Y180.3
Y180.261 Z-6.826
X-290.04 Y180.229 Z-6.804
Y180.207 Z-6.772
Y180.2 Z-6.733
G0 Z5.
X-289.9
G1 Z-4.333 F160.
Z-8.1
G19 G3 Y180.3 Z-8.2 J0.1
G1 Y180.9 F480.
G17 G3 X-290. Y181. I-0.1
G1 X-331. F1000.
Z-7.2
X-339.
Z-8.2 F160.
X-380. F1000.
G2 X-388. Y189. J8.
G1 Y230.
Z-7.2
Y238.
Z-8.2 F160.
Y279. F1000.
G2 X-380. Y287. I8.
G1 X-339.
Z-7.2
X-331.
Z-8.2 F160.
X-290. F1000.
G2 X-282. Y279. J-8.
G1 Y238.
Z-7.2
Y230.
Z-8.2 F160.
Y189. F1000.
G2 X-290. Y181. I-8.
G3 X-290.1 Y180.9 J-0.1 F480.
G1 Y180.3
G19 G2 Y180.2 Z-8.1 K0.1
G0 Z5.
X-277.8 Y180.201
G1 Z-4.333 F160.
Z-8.1
G18 G2 X-277.7 Z-8.2 I0.1
G1 X-277.1 F480.
G17 G3 X-277. Y180.301 J0.1
G1 Y227. F1000.
Z-7.2
Y235.
Z-8.2 F160.
Y285. F1000.
G2 X-274. Y288. I3.
G1 X-242.
G2 X-239. Y285. J-3.
G1 Y256.
X-186.5
Z-7.2
X-178.5
Z-8.2 F160.
X-126. F1000.
Y285.
G2 X-123. Y288. I3.
G1 X-63.
G2 X-60. Y285. J-3.
G1 Y256.
X-1.
G2 X2. Y253. J-3.
G1 Y239.5
G2 X-1. Y236.5 I-3.
G1 X-37.
G3 X-38. Y235.5 J-1.
G1 Y211.
G3 X-37. Y210. I1.
G1 X-1.
G2 X2. Y207. J-3.
G1 Y147.
Z-7.2
Y139.
Z-8.2 F160.
Y79. F1000.
G2 X-1. Y76. I-3.
G1 X-37.
G3 X-38. Y75. J-1.
G1 Y50.5
G3 X-37. Y49.5 I1.
G1 X-1.
G2 X2. Y46.5 J-3.
G1 Y33.
G2 X-1. Y30. I-3.
G1 X-60.
Y1.
G2 X-63. Y-2. I-3.
G1 X-123.
G2 X-126. Y1. J3.
G1 Y30.
X-178.5
Z-7.2
X-186.5
Z-8.2 F160.
X-239. F1000.
Y1.
G2 X-242. Y-2. I-3.
G1 X-274.
G2 X-277. Y1. J3.
G1 Y51.
Z-7.2
Y59.
Z-8.2 F160.
Y109. F1000.
G3 X-278. Y110. I-1.
G1 X-339.5
Z-7.2
X-347.5
Z-8.2 F160.
X-409. F1000.
G2 X-412. Y113. J3.
G1 Y173.
G2 X-409. Y176. I3.
G1 X-347.5
Z-7.2
X-339.5
Z-8.2 F160.
X-278. F1000.
G3 X-277. Y177. J1.
G1 Y180.301
G3 X-277.1 Y180.401 I-0.1 F480.
G1 X-277.7
G18 G3 X-277.8 Z-8.1 K0.1
G0 Z15.
G17
G91
G28 Z0.
M5
G0
G28 X0. Y0.
M30
%
