%
O00001010
(T1  D=6. CR=0. - ZMIN=-8.35 - FLAT END MILL)
G90 G94 G17
G21
G91
G28 Z0.
G90
(2D CONTOUR2 (4))
T1 M6
S5000 M3
G54
G0 X-277.8 Y106.656
G43 Z15. H1
G0 Z5.
G1 Z1. F160.
Z-8.25
G18 G2 X-277.7 Z-8.35 I0.1
G1 X-277.1 F480.
G17 G2 X-277. Y106.556 J-0.1
G1 Y59. F1000.
Z-7.35
Y51.
Z-8.35 F160.
Y1. F1000.
G3 X-274. Y-2. I3.
G1 X-242.
G3 X-239. Y1. J3.
G1 Y30.
X-186.5
Z-7.35
X-178.5
Z-8.35 F160.
X-126. F1000.
Y1.
G3 X-123. Y-2. I3.
G1 X-63.
G3 X-60. Y1. J3.
G1 Y30.
X-1.
G3 X2. Y33. J3.
G1 Y46.5
G3 X-1. Y49.5 I-3.
G1 X-37.
G2 X-38. Y50.5 J1.
G1 Y75.
G2 X-37. Y76. I1.
G1 X-1.
G3 X2. Y79. J3.
G1 Y139.
Z-7.35
Y147.
Z-8.35 F160.
Y207. F1000.
G3 X-1. Y210. I-3.
G1 X-37.
G2 X-38. Y211. J1.
G1 Y235.5
G2 X-37. Y236.5 I1.
G1 X-1.
G3 X2. Y239.5 J3.
G1 Y253.
G3 X-1. Y256. I-3.
G1 X-60.
Y285.
G3 X-63. Y288. I-3.
G1 X-123.
G3 X-126. Y285. J-3.
G1 Y256.
X-178.5
Z-7.35
X-186.5
Z-8.35 F160.
X-239. F1000.
Y285.
G3 X-242. Y288. I-3.
G1 X-274.
G3 X-277. Y285. J-3.
G1 Y235.
Z-7.35
Y227.
Z-8.35 F160.
Y177. F1000.
G2 X-278. Y176. I-1.
G1 X-339.5
Z-7.35
X-347.5
Z-8.35 F160.
X-409. F1000.
G3 X-412. Y173. J-3.
G1 Y113.
G3 X-409. Y110. I3.
G1 X-347.5
Z-7.35
X-339.5
Z-8.35 F160.
X-278. F1000.
G2 X-277. Y109. J-1.
G1 Y106.556
G2 X-277.1 Y106.456 I-0.1 F480.
G1 X-277.7
G18 G3 X-277.8 Z-8.25 K0.1
G0 Z5.
X-282.242 Y104.616
G1 Z1. F160.
Z-8.25
X-282.248 Y104.611 Z-8.288
X-282.263 Y104.596 Z-8.321
X-282.286 Y104.573 Z-8.342
X-282.313 Y104.546 Z-8.35
X-282.737 Y104.121 F480.
G17 G2 X-282.879 I-0.071 J0.071
G3 X-285. Y105. I-2.121 J-2.121 F1000.
G1 X-339.
Z-7.35
X-347.
Z-8.35 F160.
X-401. F1000.
G3 X-404. Y102. J-3.
G1 Y40.
G3 X-401. Y37. I3.
G1 X-347.
Z-7.35
X-339.
Z-8.35 F160.
X-285. F1000.
G3 X-282. Y40. J3.
G1 Y102.
G3 X-282.879 Y104.121 I-3.
G2 Y104.263 I0.071 J0.071 F480.
G1 X-282.454 Y104.687
X-282.427 Y104.714 Z-8.342
X-282.404 Y104.737 Z-8.321
X-282.389 Y104.752 Z-8.288
X-282.384 Y104.758 Z-8.25
G0 Z5.
X-283.848 Y182.707
G1 Z1. F160.
Z-8.25
X-283.854 Y182.712 Z-8.288
X-283.869 Y182.727 Z-8.321
X-283.892 Y182.75 Z-8.342
X-283.919 Y182.777 Z-8.35
X-284.343 Y183.202 F480.
G2 Y183.343 I0.071 J0.071
G3 X-282. Y189. I-5.657 J5.657 F1000.
G1 Y230.
Z-7.35
Y238.
Z-8.35 F160.
Y279. F1000.
G3 X-290. Y287. I-8.
G1 X-331.
Z-7.35
X-339.
Z-8.35 F160.
X-380. F1000.
G3 X-388. Y279. J-8.
G1 Y238.
Z-7.35
Y230.
Z-8.35 F160.
Y189. F1000.
G3 X-380. Y181. I8.
G1 X-339.
Z-7.35
X-331.
Z-8.35 F160.
X-290. F1000.
G3 X-284.343 Y183.343 J8.
G2 X-284.202 I0.071 J-0.071 F480.
G1 X-283.777 Y182.919
X-283.75 Y182.892 Z-8.342
X-283.727 Y182.869 Z-8.321
X-283.712 Y182.854 Z-8.288
X-283.707 Y182.848 Z-8.25
G0 Z15.
G91
G28 Z0.
M5
G28 X0. Y0.
M30
%
