%
O00001011
(T1  D=6. CR=0. - ZMIN=-8.3 - FLAT END MILL)
G90 G94 G17
G21
G91
G28 Z0.
G90
(2D CONTOUR1)
T1 M6
S5000 M3
G54
G0 X7.7 Y16.9
G43 Z15. H1
G0 Z5.
G1 Z2. F160.
Z-0.9
G18 G2 X7.8 Z-1. I0.1
G1 X7.9 F480.
G17 G3 X8. Y17. J0.1
X6. I-1. F1000.
X8. I1.
X7.9 Y17.1 I-0.1 F480.
G1 X7.8
G18 G3 X7.7 Z-0.9 K0.1
G0 Z5.
Y16.9
G1 Z1. F160.
Z-1.9
G2 X7.8 Z-2. I0.1
G1 X7.9 F480.
G17 G3 X8. Y17. J0.1
X6. I-1. F1000.
X8. I1.
X7.9 Y17.1 I-0.1 F480.
G1 X7.8
G18 G3 X7.7 Z-1.9 K0.1
G0 Z5.
Y16.9
G1 Z0. F160.
Z-2.9
G2 X7.8 Z-3. I0.1
G1 X7.9 F480.
G17 G3 X8. Y17. J0.1
X6. I-1. F1000.
X8. I1.
X7.9 Y17.1 I-0.1 F480.
G1 X7.8
G18 G3 X7.7 Z-2.9 K0.1
G0 Z5.
Y16.9
G1 Z-1. F160.
Z-3.9
G2 X7.8 Z-4. I0.1
G1 X7.9 F480.
G17 G3 X8. Y17. J0.1
X6. I-1. F1000.
X8. I1.
X7.9 Y17.1 I-0.1 F480.
G1 X7.8
G18 G3 X7.7 Z-3.9 K0.1
G0 Z5.
X29.7 Y16.9
G1 Z2. F160.
Z-0.9
G2 X29.8 Z-1. I0.1
G1 X29.9 F480.
G17 G3 X30. Y17. J0.1
X28. I-1. F1000.
X30. I1.
X29.9 Y17.1 I-0.1 F480.
G1 X29.8
G18 G3 X29.7 Z-0.9 K0.1
G0 Z5.
Y16.9
G1 Z1. F160.
Z-1.9
G2 X29.8 Z-2. I0.1
G1 X29.9 F480.
G17 G3 X30. Y17. J0.1
X28. I-1. F1000.
X30. I1.
X29.9 Y17.1 I-0.1 F480.
G1 X29.8
G18 G3 X29.7 Z-1.9 K0.1
G0 Z5.
Y16.9
G1 Z0. F160.
Z-2.9
G2 X29.8 Z-3. I0.1
G1 X29.9 F480.
G17 G3 X30. Y17. J0.1
X28. I-1. F1000.
X30. I1.
X29.9 Y17.1 I-0.1 F480.
G1 X29.8
G18 G3 X29.7 Z-2.9 K0.1
G0 Z5.
Y16.9
G1 Z-1. F160.
Z-3.9
G2 X29.8 Z-4. I0.1
G1 X29.9 F480.
G17 G3 X30. Y17. J0.1
X28. I-1. F1000.
X30. I1.
X29.9 Y17.1 I-0.1 F480.
G1 X29.8
G18 G3 X29.7 Z-3.9 K0.1
G0 Z5.
Y72.9
G1 Z2. F160.
Z-0.9
G2 X29.8 Z-1. I0.1
G1 X29.9 F480.
G17 G3 X30. Y73. J0.1
X28. I-1. F1000.
X30. I1.
X29.9 Y73.1 I-0.1 F480.
G1 X29.8
G18 G3 X29.7 Z-0.9 K0.1
G0 Z5.
Y72.9
G1 Z1. F160.
Z-1.9
G2 X29.8 Z-2. I0.1
G1 X29.9 F480.
G17 G3 X30. Y73. J0.1
X28. I-1. F1000.
X30. I1.
X29.9 Y73.1 I-0.1 F480.
G1 X29.8
G18 G3 X29.7 Z-1.9 K0.1
G0 Z5.
Y72.9
G1 Z0. F160.
Z-2.9
G2 X29.8 Z-3. I0.1
G1 X29.9 F480.
G17 G3 X30. Y73. J0.1
X28. I-1. F1000.
X30. I1.
X29.9 Y73.1 I-0.1 F480.
G1 X29.8
G18 G3 X29.7 Z-2.9 K0.1
G0 Z5.
Y72.9
G1 Z-1. F160.
Z-3.9
G2 X29.8 Z-4. I0.1
G1 X29.9 F480.
G17 G3 X30. Y73. J0.1
X28. I-1. F1000.
X30. I1.
X29.9 Y73.1 I-0.1 F480.
G1 X29.8
G18 G3 X29.7 Z-3.9 K0.1
G0 Z5.
X7.702 Y72.917
G1 Z2. F160.
Z-0.9
X7.71 Z-0.938
X7.732 Y72.918 Z-0.971
X7.764 Y72.919 Z-0.992
X7.802 Y72.92 Z-1.
X7.902 Y72.922 F480.
G17 G3 X8. Y73.025 I-0.002 J0.1
X6. Y72.975 I-1. J-0.025 F1000.
X8. Y73.025 I1. J0.025
X7.897 Y73.122 I-0.1 J-0.002 F480.
G1 X7.797 Y73.12
X7.759 Y73.119 Z-0.992
X7.727 Y73.118 Z-0.971
X7.705 Y73.117 Z-0.938
X7.697 Z-0.9
G0 Z5.
X7.702 Y72.917
G1 Z1. F160.
Z-1.9
X7.71 Z-1.938
X7.732 Y72.918 Z-1.971
X7.764 Y72.919 Z-1.992
X7.802 Y72.92 Z-2.
X7.902 Y72.922 F480.
G3 X8. Y73.025 I-0.002 J0.1
X6. Y72.975 I-1. J-0.025 F1000.
X8. Y73.025 I1. J0.025
X7.897 Y73.122 I-0.1 J-0.002 F480.
G1 X7.797 Y73.12
X7.759 Y73.119 Z-1.992
X7.727 Y73.118 Z-1.971
X7.705 Y73.117 Z-1.938
X7.697 Z-1.9
G0 Z5.
X7.702 Y72.917
G1 Z0. F160.
Z-2.9
X7.71 Z-2.938
X7.732 Y72.918 Z-2.971
X7.764 Y72.919 Z-2.992
X7.802 Y72.92 Z-3.
X7.902 Y72.922 F480.
G3 X8. Y73.025 I-0.002 J0.1
X6. Y72.975 I-1. J-0.025 F1000.
X8. Y73.025 I1. J0.025
X7.897 Y73.122 I-0.1 J-0.002 F480.
G1 X7.797 Y73.12
X7.759 Y73.119 Z-2.992
X7.727 Y73.118 Z-2.971
X7.705 Y73.117 Z-2.938
X7.697 Z-2.9
G0 Z5.
X7.702 Y72.917
G1 Z-1. F160.
Z-3.9
X7.71 Z-3.938
X7.732 Y72.918 Z-3.971
X7.764 Y72.919 Z-3.992
X7.802 Y72.92 Z-4.
X7.902 Y72.922 F480.
G3 X8. Y73.025 I-0.002 J0.1
X6. Y72.975 I-1. J-0.025 F1000.
X8. Y73.025 I1. J0.025
X7.897 Y73.122 I-0.1 J-0.002 F480.
G1 X7.797 Y73.12
X7.759 Y73.119 Z-3.992
X7.727 Y73.118 Z-3.971
X7.705 Y73.117 Z-3.938
X7.697 Z-3.9
G0 Z15.
(2D CONTOUR1 (2))
G0 X38.3 Y75.169
Z15.
Z5.
G1 Z2. F160.
Z-0.822
G18 G3 X38.2 Z-0.922 I-0.1
G1 X38.1 F480.
G17 G3 X38. Y75.069 J-0.1
G1 Y6. F1000.
G2 X30. Y-2. I-8.
G1 X6.
G2 X-2. Y6. J8.
G1 Y76.
G2 X6. Y84. I8.
G1 X30.
G2 X38. Y76. J-8.
G1 Y75.069
G3 X38.1 Y74.969 I0.1 F480.
G1 X38.2
G18 G2 X38.3 Z-0.822 K0.1
G0 Z5.
Y75.169
G1 Z1.078 F160.
Z-1.744
G3 X38.2 Z-1.844 I-0.1
G1 X38.1 F480.
G17 G3 X38. Y75.069 J-0.1
G1 Y6. F1000.
G2 X30. Y-2. I-8.
G1 X6.
G2 X-2. Y6. J8.
G1 Y76.
G2 X6. Y84. I8.
G1 X30.
G2 X38. Y76. J-8.
G1 Y75.069
G3 X38.1 Y74.969 I0.1 F480.
G1 X38.2
G18 G2 X38.3 Z-1.744 K0.1
G0 Z5.
Y75.169
G1 Z0.156 F160.
Z-2.667
G3 X38.2 Z-2.767 I-0.1
G1 X38.1 F480.
G17 G3 X38. Y75.069 J-0.1
G1 Y6. F1000.
G2 X30. Y-2. I-8.
G1 X6.
G2 X-2. Y6. J8.
G1 Y76.
G2 X6. Y84. I8.
G1 X30.
G2 X38. Y76. J-8.
G1 Y75.069
G3 X38.1 Y74.969 I0.1 F480.
G1 X38.2
G18 G2 X38.3 Z-2.667 K0.1
G0 Z5.
Y75.169
G1 Z-0.767 F160.
Z-3.589
G3 X38.2 Z-3.689 I-0.1
G1 X38.1 F480.
G17 G3 X38. Y75.069 J-0.1
G1 Y6. F1000.
G2 X30. Y-2. I-8.
G1 X6.
G2 X-2. Y6. J8.
G1 Y76.
G2 X6. Y84. I8.
G1 X30.
G2 X38. Y76. J-8.
G1 Y75.069
G3 X38.1 Y74.969 I0.1 F480.
G1 X38.2
G18 G2 X38.3 Z-3.589 K0.1
G0 Z5.
Y75.169
G1 Z-1.689 F160.
Z-4.511
G3 X38.2 Z-4.611 I-0.1
G1 X38.1 F480.
G17 G3 X38. Y75.069 J-0.1
G1 Y6. F1000.
G2 X30. Y-2. I-8.
G1 X6.
G2 X-2. Y6. J8.
G1 Y76.
G2 X6. Y84. I8.
G1 X30.
G2 X38. Y76. J-8.
G1 Y75.069
G3 X38.1 Y74.969 I0.1 F480.
G1 X38.2
G18 G2 X38.3 Z-4.511 K0.1
G0 Z5.
Y75.169
G1 Z-2.611 F160.
Z-5.433
G3 X38.2 Z-5.533 I-0.1
G1 X38.1 F480.
G17 G3 X38. Y75.069 J-0.1
G1 Y6. F1000.
G2 X30. Y-2. I-8.
G1 X6.
G2 X-2. Y6. J8.
G1 Y76.
G2 X6. Y84. I8.
G1 X30.
G2 X38. Y76. J-8.
G1 Y75.069
G3 X38.1 Y74.969 I0.1 F480.
G1 X38.2
G18 G2 X38.3 Z-5.433 K0.1
G0 Z5.
Y75.169
G1 Z-3.533 F160.
Z-6.356
G3 X38.2 Z-6.456 I-0.1
G1 X38.1 F480.
G17 G3 X38. Y75.069 J-0.1
G1 Y6. F1000.
G2 X30. Y-2. I-8.
G1 X6.
G2 X-2. Y6. J8.
G1 Y76.
G2 X6. Y84. I8.
G1 X30.
G2 X38. Y76. J-8.
G1 Y75.069
G3 X38.1 Y74.969 I0.1 F480.
G1 X38.2
G18 G2 X38.3 Z-6.356 K0.1
G0 Z5.
Y75.169
G1 Z-4.456 F160.
Z-7.278
G3 X38.2 Z-7.378 I-0.1
G1 X38.1 F480.
G17 G3 X38. Y75.069 J-0.1
G1 Y45. F1000.
Z-7.3
Y37.
Z-7.378 F160.
Y6. F1000.
G2 X30. Y-2. I-8.
G1 X6.
G2 X-2. Y6. J8.
G1 Y37.
Z-7.3
Y45.
Z-7.378 F160.
Y76. F1000.
G2 X6. Y84. I8.
G1 X30.
G2 X38. Y76. J-8.
G1 Y75.069
G3 X38.1 Y74.969 I0.1 F480.
G1 X38.2
G18 G2 X38.3 Z-7.278 K0.1
G0 Z5.
Y75.169
G1 Z-5.378 F160.
Z-8.2
G3 X38.2 Z-8.3 I-0.1
G1 X38.1 F480.
G17 G3 X38. Y75.069 J-0.1
G1 Y45. F1000.
Z-7.3
Y37.
Z-8.3 F160.
Y6. F1000.
G2 X30. Y-2. I-8.
G1 X6.
G2 X-2. Y6. J8.
G1 Y37.
Z-7.3
Y45.
Z-8.3 F160.
Y76. F1000.
G2 X6. Y84. I8.
G1 X30.
G2 X38. Y76. J-8.
G1 Y75.069
G3 X38.1 Y74.969 I0.1 F480.
G1 X38.2
G18 G2 X38.3 Z-8.2 K0.1
G0 Z15.
G17
G91
G28 Z0.
M5
G0
G28 X0. Y0.
M30
%
