%
O00001012
(T1  D=1. CR=0. - ZMIN=-8. - FLAT END MILL)
G90 G94 G17
G21
G91
G28 Z0.
G90
(DRILL1)
T1 M6
S5000 M3
G54
G0 X29. Y73.
G43 Z15. H1
G0 Z5.
Z2.
G1 Z-0.25 F133.3
G0 Z-0.15
G1 Z-0.5 F133.3
G0 Z-0.4
G1 Z-0.75 F133.3
G0 Z-0.65
G1 Z-1. F133.3
G0 Z-0.9
G1 Z-1.25 F133.3
G0 Z-1.15
G1 Z-1.5 F133.3
G0 Z-1.4
G1 Z-1.75 F133.3
G0 Z-1.65
G1 Z-2. F133.3
G0 Z-1.9
G1 Z-2.25 F133.3
G0 Z-2.15
G1 Z-2.5 F133.3
G0 Z-2.4
G1 Z-2.75 F133.3
G0 Z-2.65
G1 Z-3. F133.3
G0 Z-2.9
G1 Z-3.25 F133.3
G0 Z-3.15
G1 Z-3.5 F133.3
G0 Z-3.4
G1 Z-3.75 F133.3
G0 Z-3.65
G1 Z-4. F133.3
G0 Z-3.9
G1 Z-4.25 F133.3
G0 Z-4.15
G1 Z-4.5 F133.3
G0 Z-4.4
G1 Z-4.75 F133.3
G0 Z-4.65
G1 Z-5. F133.3
G0 Z-4.9
G1 Z-5.25 F133.3
G0 Z-5.15
G1 Z-5.5 F133.3
G0 Z-5.4
G1 Z-5.75 F133.3
G0 Z-5.65
G1 Z-6. F133.3
G0 Z-5.9
G1 Z-6.25 F133.3
G0 Z-6.15
G1 Z-6.5 F133.3
G0 Z-6.4
G1 Z-6.75 F133.3
G0 Z-6.65
G1 Z-7. F133.3
G0 Z-6.9
G1 Z-7.25 F133.3
G0 Z-7.15
G1 Z-7.5 F133.3
G0 Z-7.4
G1 Z-7.75 F133.3
G0 Z-7.65
G1 Z-8. F133.3
G0 Z5.
X18. Y68.5
Z2.
G1 Z-0.25 F133.3
G0 Z-0.15
G1 Z-0.5 F133.3
G0 Z-0.4
G1 Z-0.75 F133.3
G0 Z-0.65
G1 Z-1. F133.3
G0 Z-0.9
G1 Z-1.25 F133.3
G0 Z-1.15
G1 Z-1.5 F133.3
G0 Z-1.4
G1 Z-1.75 F133.3
G0 Z-1.65
G1 Z-2. F133.3
G0 Z-1.9
G1 Z-2.25 F133.3
G0 Z-2.15
G1 Z-2.5 F133.3
G0 Z-2.4
G1 Z-2.75 F133.3
G0 Z-2.65
G1 Z-3. F133.3
G0 Z-2.9
G1 Z-3.25 F133.3
G0 Z-3.15
G1 Z-3.5 F133.3
G0 Z-3.4
G1 Z-3.75 F133.3
G0 Z-3.65
G1 Z-4. F133.3
G0 Z-3.9
G1 Z-4.25 F133.3
G0 Z-4.15
G1 Z-4.5 F133.3
G0 Z-4.4
G1 Z-4.75 F133.3
G0 Z-4.65
G1 Z-5. F133.3
G0 Z-4.9
G1 Z-5.25 F133.3
G0 Z-5.15
G1 Z-5.5 F133.3
G0 Z-5.4
G1 Z-5.75 F133.3
G0 Z-5.65
G1 Z-6. F133.3
G0 Z-5.9
G1 Z-6.25 F133.3
G0 Z-6.15
G1 Z-6.5 F133.3
G0 Z-6.4
G1 Z-6.75 F133.3
G0 Z-6.65
G1 Z-7. F133.3
G0 Z-6.9
G1 Z-7.25 F133.3
G0 Z-7.15
G1 Z-7.5 F133.3
G0 Z-7.4
G1 Z-7.75 F133.3
G0 Z-7.65
G1 Z-8. F133.3
G0 Z5.
X7. Y73.
Z2.
G1 Z-0.25 F133.3
G0 Z-0.15
G1 Z-0.5 F133.3
G0 Z-0.4
G1 Z-0.75 F133.3
G0 Z-0.65
G1 Z-1. F133.3
G0 Z-0.9
G1 Z-1.25 F133.3
G0 Z-1.15
G1 Z-1.5 F133.3
G0 Z-1.4
G1 Z-1.75 F133.3
G0 Z-1.65
G1 Z-2. F133.3
G0 Z-1.9
G1 Z-2.25 F133.3
G0 Z-2.15
G1 Z-2.5 F133.3
G0 Z-2.4
G1 Z-2.75 F133.3
G0 Z-2.65
G1 Z-3. F133.3
G0 Z-2.9
G1 Z-3.25 F133.3
G0 Z-3.15
G1 Z-3.5 F133.3
G0 Z-3.4
G1 Z-3.75 F133.3
G0 Z-3.65
G1 Z-4. F133.3
G0 Z-3.9
G1 Z-4.25 F133.3
G0 Z-4.15
G1 Z-4.5 F133.3
G0 Z-4.4
G1 Z-4.75 F133.3
G0 Z-4.65
G1 Z-5. F133.3
G0 Z-4.9
G1 Z-5.25 F133.3
G0 Z-5.15
G1 Z-5.5 F133.3
G0 Z-5.4
G1 Z-5.75 F133.3
G0 Z-5.65
G1 Z-6. F133.3
G0 Z-5.9
G1 Z-6.25 F133.3
G0 Z-6.15
G1 Z-6.5 F133.3
G0 Z-6.4
G1 Z-6.75 F133.3
G0 Z-6.65
G1 Z-7. F133.3
G0 Z-6.9
G1 Z-7.25 F133.3
G0 Z-7.15
G1 Z-7.5 F133.3
G0 Z-7.4
G1 Z-7.75 F133.3
G0 Z-7.65
G1 Z-8. F133.3
G0 Z5.
X18. Y43.5
Z2.
G1 Z-0.25 F133.3
G0 Z-0.15
G1 Z-0.5 F133.3
G0 Z-0.4
G1 Z-0.75 F133.3
G0 Z-0.65
G1 Z-1. F133.3
G0 Z-0.9
G1 Z-1.25 F133.3
G0 Z-1.15
G1 Z-1.5 F133.3
G0 Z-1.4
G1 Z-1.75 F133.3
G0 Z-1.65
G1 Z-2. F133.3
G0 Z-1.9
G1 Z-2.25 F133.3
G0 Z-2.15
G1 Z-2.5 F133.3
G0 Z-2.4
G1 Z-2.75 F133.3
G0 Z-2.65
G1 Z-3. F133.3
G0 Z-2.9
G1 Z-3.25 F133.3
G0 Z-3.15
G1 Z-3.5 F133.3
G0 Z-3.4
G1 Z-3.75 F133.3
G0 Z-3.65
G1 Z-4. F133.3
G0 Z-3.9
G1 Z-4.25 F133.3
G0 Z-4.15
G1 Z-4.5 F133.3
G0 Z-4.4
G1 Z-4.75 F133.3
G0 Z-4.65
G1 Z-5. F133.3
G0 Z-4.9
G1 Z-5.25 F133.3
G0 Z-5.15
G1 Z-5.5 F133.3
G0 Z-5.4
G1 Z-5.75 F133.3
G0 Z-5.65
G1 Z-6. F133.3
G0 Z-5.9
G1 Z-6.25 F133.3
G0 Z-6.15
G1 Z-6.5 F133.3
G0 Z-6.4
G1 Z-6.75 F133.3
G0 Z-6.65
G1 Z-7. F133.3
G0 Z-6.9
G1 Z-7.25 F133.3
G0 Z-7.15
G1 Z-7.5 F133.3
G0 Z-7.4
G1 Z-7.75 F133.3
G0 Z-7.65
G1 Z-8. F133.3
G0 Z5.
X29. Y17.
Z2.
G1 Z-0.25 F133.3
G0 Z-0.15
G1 Z-0.5 F133.3
G0 Z-0.4
G1 Z-0.75 F133.3
G0 Z-0.65
G1 Z-1. F133.3
G0 Z-0.9
G1 Z-1.25 F133.3
G0 Z-1.15
G1 Z-1.5 F133.3
G0 Z-1.4
G1 Z-1.75 F133.3
G0 Z-1.65
G1 Z-2. F133.3
G0 Z-1.9
G1 Z-2.25 F133.3
G0 Z-2.15
G1 Z-2.5 F133.3
G0 Z-2.4
G1 Z-2.75 F133.3
G0 Z-2.65
G1 Z-3. F133.3
G0 Z-2.9
G1 Z-3.25 F133.3
G0 Z-3.15
G1 Z-3.5 F133.3
G0 Z-3.4
G1 Z-3.75 F133.3
G0 Z-3.65
G1 Z-4. F133.3
G0 Z-3.9
G1 Z-4.25 F133.3
G0 Z-4.15
G1 Z-4.5 F133.3
G0 Z-4.4
G1 Z-4.75 F133.3
G0 Z-4.65
G1 Z-5. F133.3
G0 Z-4.9
G1 Z-5.25 F133.3
G0 Z-5.15
G1 Z-5.5 F133.3
G0 Z-5.4
G1 Z-5.75 F133.3
G0 Z-5.65
G1 Z-6. F133.3
G0 Z-5.9
G1 Z-6.25 F133.3
G0 Z-6.15
G1 Z-6.5 F133.3
G0 Z-6.4
G1 Z-6.75 F133.3
G0 Z-6.65
G1 Z-7. F133.3
G0 Z-6.9
G1 Z-7.25 F133.3
G0 Z-7.15
G1 Z-7.5 F133.3
G0 Z-7.4
G1 Z-7.75 F133.3
G0 Z-7.65
G1 Z-8. F133.3
G0 Z5.
X18. Y18.5
Z2.
G1 Z-0.25 F133.3
G0 Z-0.15
G1 Z-0.5 F133.3
G0 Z-0.4
G1 Z-0.75 F133.3
G0 Z-0.65
G1 Z-1. F133.3
G0 Z-0.9
G1 Z-1.25 F133.3
G0 Z-1.15
G1 Z-1.5 F133.3
G0 Z-1.4
G1 Z-1.75 F133.3
G0 Z-1.65
G1 Z-2. F133.3
G0 Z-1.9
G1 Z-2.25 F133.3
G0 Z-2.15
G1 Z-2.5 F133.3
G0 Z-2.4
G1 Z-2.75 F133.3
G0 Z-2.65
G1 Z-3. F133.3
G0 Z-2.9
G1 Z-3.25 F133.3
G0 Z-3.15
G1 Z-3.5 F133.3
G0 Z-3.4
G1 Z-3.75 F133.3
G0 Z-3.65
G1 Z-4. F133.3
G0 Z-3.9
G1 Z-4.25 F133.3
G0 Z-4.15
G1 Z-4.5 F133.3
G0 Z-4.4
G1 Z-4.75 F133.3
G0 Z-4.65
G1 Z-5. F133.3
G0 Z-4.9
G1 Z-5.25 F133.3
G0 Z-5.15
G1 Z-5.5 F133.3
G0 Z-5.4
G1 Z-5.75 F133.3
G0 Z-5.65
G1 Z-6. F133.3
G0 Z-5.9
G1 Z-6.25 F133.3
G0 Z-6.15
G1 Z-6.5 F133.3
G0 Z-6.4
G1 Z-6.75 F133.3
G0 Z-6.65
G1 Z-7. F133.3
G0 Z-6.9
G1 Z-7.25 F133.3
G0 Z-7.15
G1 Z-7.5 F133.3
G0 Z-7.4
G1 Z-7.75 F133.3
G0 Z-7.65
G1 Z-8. F133.3
G0 Z5.
X7. Y17.
Z2.
G1 Z-0.25 F133.3
G0 Z-0.15
G1 Z-0.5 F133.3
G0 Z-0.4
G1 Z-0.75 F133.3
G0 Z-0.65
G1 Z-1. F133.3
G0 Z-0.9
G1 Z-1.25 F133.3
G0 Z-1.15
G1 Z-1.5 F133.3
G0 Z-1.4
G1 Z-1.75 F133.3
G0 Z-1.65
G1 Z-2. F133.3
G0 Z-1.9
G1 Z-2.25 F133.3
G0 Z-2.15
G1 Z-2.5 F133.3
G0 Z-2.4
G1 Z-2.75 F133.3
G0 Z-2.65
G1 Z-3. F133.3
G0 Z-2.9
G1 Z-3.25 F133.3
G0 Z-3.15
G1 Z-3.5 F133.3
G0 Z-3.4
G1 Z-3.75 F133.3
G0 Z-3.65
G1 Z-4. F133.3
G0 Z-3.9
G1 Z-4.25 F133.3
G0 Z-4.15
G1 Z-4.5 F133.3
G0 Z-4.4
G1 Z-4.75 F133.3
G0 Z-4.65
G1 Z-5. F133.3
G0 Z-4.9
G1 Z-5.25 F133.3
G0 Z-5.15
G1 Z-5.5 F133.3
G0 Z-5.4
G1 Z-5.75 F133.3
G0 Z-5.65
G1 Z-6. F133.3
G0 Z-5.9
G1 Z-6.25 F133.3
G0 Z-6.15
G1 Z-6.5 F133.3
G0 Z-6.4
G1 Z-6.75 F133.3
G0 Z-6.65
G1 Z-7. F133.3
G0 Z-6.9
G1 Z-7.25 F133.3
G0 Z-7.15
G1 Z-7.5 F133.3
G0 Z-7.4
G1 Z-7.75 F133.3
G0 Z-7.65
G1 Z-8. F133.3
G0 Z5.
Z15.
G91
G28 Z0.
M5
G28 X0. Y0.
M30
%
