%
O00001001
(T1  D=3. CR=0. - ZMIN=-3.05 - FLAT END MILL)
G90 G94 G17
G21
G91
G28 Z0.
G90
(BORE1)
T1 M6
S5000 M3
G54
G0 X34. Y30.3
G43 Z15. H1
G0 Z2.
G1 Z0.3 F500.
G18 G3 X33.7 Z0. I-0.3
G1 X33.55
G17 G3 X33.25 Y30. J-0.3
X34.75 Z-0.5 I0.75
X33.25 Z-1. I-0.75
X34.75 Z-1.5 I0.75
X33.25 Z-2. I-0.75
X34.75 Z-2.5 I0.75
X33.883 Y30.741 Z-2.775 I-0.75
X33.287 Y29.768 Z-3.05 I0.117 J-0.741
X34.713 Y30.232 I0.713 J0.232
X33.287 Y29.768 I-0.713 J-0.232
X33.665 Y29.576 I0.285 J0.093
G1 X33.807 Y29.622
X33.871 Y29.643 Z-3.042
X33.931 Y29.662 Z-3.02
X33.985 Y29.68 Z-2.985
X34.03 Y29.694 Z-2.937
X34.064 Y29.706 Z-2.88
X34.086 Y29.712 Z-2.817
X34.093 Y29.715 Z-2.75
G0 Z5.
X23.2 Y27.25
Z1.2
G1 Z-0.5 F500.
G18 G3 X22.9 Z-0.8 I-0.3
G1 X22.75
G17 G3 X22.5 Y27. J-0.25
X23.5 Z-1.3 I0.5
X22.5 Z-1.8 I-0.5
X23.5 Z-2.3 I0.5
X22.5 Z-2.8 I-0.5
X23. Y26.5 Z-3.05 I0.5
Y27.5 J0.5
Y26.5 J-0.5
X23.25 Y26.75 J0.25
G1 Y26.9
G19 G3 Y27.2 Z-2.75 K0.3
G0 Z5.
X16.8 Y26.75
Z1.2
G1 Z-0.5 F500.
G18 G2 X17.1 Z-0.8 I0.3
G1 X17.25
G17 G3 X17.5 Y27. J0.25
X16.5 Z-1.3 I-0.5
X17.5 Z-1.8 I0.5
X16.5 Z-2.3 I-0.5
X17.5 Z-2.8 I0.5
X17. Y27.5 Z-3.05 I-0.5
Y26.5 J-0.5
Y27.5 J0.5
X16.75 Y27.25 J-0.25
G1 Y27.1
G19 G2 Y26.8 Z-2.75 K0.3
G0 Z5.
X10.8 Y26.75
Z1.2
G1 Z-0.5 F500.
G18 G2 X11.1 Z-0.8 I0.3
G1 X11.25
G17 G3 X11.5 Y27. J0.25
X10.5 Z-1.3 I-0.5
X11.5 Z-1.8 I0.5
X10.5 Z-2.3 I-0.5
X11.5 Z-2.8 I0.5
X11. Y27.5 Z-3.05 I-0.5
Y26.5 J-0.5
Y27.5 J0.5
X10.75 Y27.25 J-0.25
G1 Y27.1
G19 G2 Y26.8 Z-2.75 K0.3
G0 Z5.
X0. Y29.7
Z2.
G1 Z0.3 F500.
G18 G2 X0.3 Z0. I0.3
G1 X0.45
G17 G3 X0.75 Y30. J0.3
X-0.75 Z-0.5 I-0.75
X0.75 Z-1. I0.75
X-0.75 Z-1.5 I-0.75
X0.75 Z-2. I0.75
X-0.75 Z-2.5 I-0.75
X0.117 Y29.259 Z-2.775 I0.75
X0.713 Y30.232 Z-3.05 I-0.117 J0.741
X-0.713 Y29.768 I-0.713 J-0.232
X0.713 Y30.232 I0.713 J0.232
X0.335 Y30.424 I-0.285 J-0.093
G1 X0.193 Y30.378
X0.129 Y30.357 Z-3.042
X0.069 Y30.338 Z-3.02
X0.015 Y30.32 Z-2.985
X-0.03 Y30.306 Z-2.937
X-0.064 Y30.294 Z-2.88
X-0.086 Y30.288 Z-2.817
X-0.093 Y30.285 Z-2.75
G0 Z5.
X0. Y0.3
Z2.
G1 Z0.3 F500.
G18 G3 X-0.3 Z0. I-0.3
G1 X-0.45
G17 G3 X-0.75 Y0. J-0.3
X0.75 Z-0.5 I0.75
X-0.75 Z-1. I-0.75
X0.75 Z-1.5 I0.75
X-0.75 Z-2. I-0.75
X0.75 Z-2.5 I0.75
X-0.75 Z-3. I-0.75
X-0.713 Y-0.232 Z-3.05 I0.75
X0.713 Y0.232 I0.713 J0.232
X-0.713 Y-0.232 I-0.713 J-0.232
X-0.335 Y-0.424 I0.285 J0.093
G1 X-0.193 Y-0.378
X-0.129 Y-0.357 Z-3.042
X-0.069 Y-0.338 Z-3.02
X-0.015 Y-0.32 Z-2.985
X0.03 Y-0.306 Z-2.937
X0.064 Y-0.294 Z-2.88
X0.086 Y-0.288 Z-2.817
X0.093 Y-0.285 Z-2.75
G0 Z5.
X11.2 Y3.25
Z1.2
G1 Z-0.5 F500.
G18 G3 X10.9 Z-0.8 I-0.3
G1 X10.75
G17 G3 X10.5 Y3. J-0.25
X11.5 Z-1.3 I0.5
X10.5 Z-1.8 I-0.5
X11.5 Z-2.3 I0.5
X10.5 Z-2.8 I-0.5
X11. Y2.5 Z-3.05 I0.5
Y3.5 J0.5
Y2.5 J-0.5
X11.25 Y2.75 J0.25
G1 Y2.9
G19 G3 Y3.2 Z-2.75 K0.3
G0 Z5.
X17.2 Y3.25
Z1.2
G1 Z-0.5 F500.
G18 G3 X16.9 Z-0.8 I-0.3
G1 X16.75
G17 G3 X16.5 Y3. J-0.25
X17.5 Z-1.3 I0.5
X16.5 Z-1.8 I-0.5
X17.5 Z-2.3 I0.5
X16.5 Z-2.8 I-0.5
X17. Y2.5 Z-3.05 I0.5
Y3.5 J0.5
Y2.5 J-0.5
X17.25 Y2.75 J0.25
G1 Y2.9
G19 G3 Y3.2 Z-2.75 K0.3
G0 Z5.
X22.8 Y2.75
Z1.2
G1 Z-0.5 F500.
G18 G2 X23.1 Z-0.8 I0.3
G1 X23.25
G17 G3 X23.5 Y3. J0.25
X22.5 Z-1.3 I-0.5
X23.5 Z-1.8 I0.5
X22.5 Z-2.3 I-0.5
X23.5 Z-2.8 I0.5
X23. Y3.5 Z-3.05 I-0.5
Y2.5 J-0.5
Y3.5 J0.5
X22.75 Y3.25 J-0.25
G1 Y3.1
G19 G2 Y2.8 Z-2.75 K0.3
G0 Z5.
X34. Y0.3
Z2.
G1 Z0.3 F500.
G18 G3 X33.7 Z0. I-0.3
G1 X33.55
G17 G3 X33.25 Y0. J-0.3
X34.75 Z-0.5 I0.75
X33.25 Z-1. I-0.75
X34.75 Z-1.5 I0.75
X33.25 Z-2. I-0.75
X34.75 Z-2.5 I0.75
X33.25 Z-3. I-0.75
X33.287 Y-0.232 Z-3.05 I0.75
X34.713 Y0.232 I0.713 J0.232
X33.287 Y-0.232 I-0.713 J-0.232
X33.665 Y-0.424 I0.285 J0.093
G1 X33.807 Y-0.378
X33.871 Y-0.357 Z-3.042
X33.931 Y-0.338 Z-3.02
X33.985 Y-0.32 Z-2.985
X34.03 Y-0.306 Z-2.937
X34.064 Y-0.294 Z-2.88
X34.086 Y-0.288 Z-2.817
X34.093 Y-0.285 Z-2.75
G0 Z15.
(BORE2)
G0 X23.25 Y2.7
Z15.
Z2.
G1 Z0.3 F500.
G18 G2 X23.55 Z0. I0.3
G1 X23.7
G17 G3 X24. Y3. J0.3
X22. Z-0.5 I-1.
X23.309 Y2.049 Z-0.8 I1.
X22.691 Y3.951 I-0.309 J0.951
X23.309 Y2.049 I0.309 J-0.951
X23.502 Y2.427 I-0.093 J0.285
G1 X23.455 Y2.57
X23.435 Y2.633 Z-0.792
X23.415 Y2.693 Z-0.77
X23.397 Y2.748 Z-0.735
X23.383 Y2.793 Z-0.687
X23.372 Y2.827 Z-0.63
X23.365 Y2.848 Z-0.567
X23.363 Y2.855 Z-0.5
G0 Z5.
X17.25 Y2.7
Z2.
G1 Z0.3 F500.
G18 G2 X17.55 Z0. I0.3
G1 X17.7
G17 G3 X18. Y3. J0.3
X16. Z-0.5 I-1.
X17.309 Y2.049 Z-0.8 I1.
X16.691 Y3.951 I-0.309 J0.951
X17.309 Y2.049 I0.309 J-0.951
X17.502 Y2.427 I-0.093 J0.285
G1 X17.455 Y2.57
X17.435 Y2.633 Z-0.792
X17.415 Y2.693 Z-0.77
X17.397 Y2.748 Z-0.735
X17.383 Y2.793 Z-0.687
X17.372 Y2.827 Z-0.63
X17.365 Y2.848 Z-0.567
X17.363 Y2.855 Z-0.5
G0 Z5.
X11.25 Y2.7
Z2.
G1 Z0.3 F500.
G18 G2 X11.55 Z0. I0.3
G1 X11.7
G17 G3 X12. Y3. J0.3
X10. Z-0.5 I-1.
X11.309 Y2.049 Z-0.8 I1.
X10.691 Y3.951 I-0.309 J0.951
X11.309 Y2.049 I0.309 J-0.951
X11.502 Y2.427 I-0.093 J0.285
G1 X11.455 Y2.57
X11.435 Y2.633 Z-0.792
X11.415 Y2.693 Z-0.77
X11.397 Y2.748 Z-0.735
X11.383 Y2.793 Z-0.687
X11.372 Y2.827 Z-0.63
X11.365 Y2.848 Z-0.567
X11.363 Y2.855 Z-0.5
G0 Z5.
X11.25 Y26.7
Z2.
G1 Z0.3 F500.
G18 G2 X11.55 Z0. I0.3
G1 X11.7
G17 G3 X12. Y27. J0.3
X10. Z-0.5 I-1.
X11.309 Y26.049 Z-0.8 I1.
X10.691 Y27.951 I-0.309 J0.951
X11.309 Y26.049 I0.309 J-0.951
X11.502 Y26.427 I-0.093 J0.285
G1 X11.455 Y26.57
X11.435 Y26.633 Z-0.792
X11.415 Y26.693 Z-0.77
X11.397 Y26.748 Z-0.735
X11.383 Y26.793 Z-0.687
X11.372 Y26.827 Z-0.63
X11.365 Y26.848 Z-0.567
X11.363 Y26.855 Z-0.5
G0 Z5.
X17.25 Y26.7
Z2.
G1 Z0.3 F500.
G18 G2 X17.55 Z0. I0.3
G1 X17.7
G17 G3 X18. Y27. J0.3
X16. Z-0.5 I-1.
X17.309 Y26.049 Z-0.8 I1.
X16.691 Y27.951 I-0.309 J0.951
X17.309 Y26.049 I0.309 J-0.951
X17.502 Y26.427 I-0.093 J0.285
G1 X17.455 Y26.57
X17.435 Y26.633 Z-0.792
X17.415 Y26.693 Z-0.77
X17.397 Y26.748 Z-0.735
X17.383 Y26.793 Z-0.687
X17.372 Y26.827 Z-0.63
X17.365 Y26.848 Z-0.567
X17.363 Y26.855 Z-0.5
G0 Z5.
X23.25 Y26.7
Z2.
G1 Z0.3 F500.
G18 G2 X23.55 Z0. I0.3
G1 X23.7
G17 G3 X24. Y27. J0.3
X22. Z-0.5 I-1.
X23.309 Y26.049 Z-0.8 I1.
X22.691 Y27.951 I-0.309 J0.951
X23.309 Y26.049 I0.309 J-0.951
X23.502 Y26.427 I-0.093 J0.285
G1 X23.455 Y26.57
X23.435 Y26.633 Z-0.792
X23.415 Y26.693 Z-0.77
X23.397 Y26.748 Z-0.735
X23.383 Y26.793 Z-0.687
X23.372 Y26.827 Z-0.63
X23.365 Y26.848 Z-0.567
X23.363 Y26.855 Z-0.5
G0 Z15.
(2D CONTOUR1)
G0 X40.8 Y15.1
Z15.
Z5.
G1 Z2.5 F300.
Z-0.917
G18 G3 X40.7 Z-1.017 I-0.1
G1 X40.6 F500.
G17 G3 X40.5 Y15. J-0.1
G1 Y1.
G2 X33. Y-6.5 I-7.5
G1 X1.
G2 X-6.5 Y1. J7.5
G1 Y29.
G2 X1. Y36.5 I7.5
G1 X33.
G2 X40.5 Y29. J-7.5
G1 Y15.
G3 X40.6 Y14.9 I0.1
G1 X40.7
G18 G2 X40.8 Z-0.917 K0.1
G0 Z5.
Y15.1
G1 Z1.483 F300.
Z-1.933
G3 X40.7 Z-2.033 I-0.1
G1 X40.6 F500.
G17 G3 X40.5 Y15. J-0.1
G1 Y1.
G2 X33. Y-6.5 I-7.5
G1 X1.
G2 X-6.5 Y1. J7.5
G1 Y29.
G2 X1. Y36.5 I7.5
G1 X33.
G2 X40.5 Y29. J-7.5
G1 Y15.
G3 X40.6 Y14.9 I0.1
G1 X40.7
G18 G2 X40.8 Z-1.933 K0.1
G0 Z5.
Y15.1
G1 Z0.467 F300.
Z-2.3
X40.7
X40.6 F500.
G17 G3 X40.5 Y15. J-0.1
G1 Y12.
Z-3.05 F300.
Y1. F500.
G2 X33. Y-6.5 I-7.5
G1 X20.
Z-2.3
X14.
Z-3.05 F300.
X1. F500.
G2 X-6.5 Y1. J7.5
G1 Y12.
Z-2.3
Y18.
Z-3.05 F300.
Y29. F500.
G2 X1. Y36.5 I7.5
G1 X14.
Z-2.3
X20.
Z-3.05 F300.
X33. F500.
G2 X40.5 Y29. J-7.5
G1 Y18.
Z-2.3
Y15.
G3 X40.6 Y14.9 I0.1
G1 X40.8
G0 Z15.
G91
G28 Z0.
M5
G28 X0. Y0.
M30
%
