%
O00001002
(T1  D=3. CR=0. - ZMIN=-3.05 - FLAT END MILL)
G90 G94 G17
G21
G91
G28 Z0.
G90
(BORE1)
T1 M6
S5000 M3
G54
G0 X0. Y0.
G43 Z15. H1
G0 Z1.9
G1 Z0. F500.
X-0.025 Y0.025
G3 X-0.05 Y0. J-0.025
X0.05 Z-0.5 I0.05
X-0.05 Z-1. I-0.05
X0.05 Z-1.5 I0.05
X-0.05 Z-2. I-0.05
X0.05 Z-2.5 I0.05
X-0.05 Z-3. I-0.05
X-0.048 Y-0.015 Z-3.05 I0.05
X0.048 Y0.015 I0.048 J0.015
X-0.048 Y-0.015 I-0.048 J-0.015
X-0.016 Y-0.032 I0.024 J0.008
G1 X0. Y0.
G0 Z5.
X22.457 Y8.688
Z1.2
G1 Z-0.7 F500.
G18 G2 X22.557 Z-0.8 I0.1
G1 X22.707
G17 G3 X22.807 Y8.788 J0.1
X21.807 Z-1.3 I-0.5
X22.807 Z-1.8 I0.5
X21.807 Z-2.3 I-0.5
X22.807 Z-2.8 I0.5
X22.307 Y9.288 Z-3.05 I-0.5
Y8.288 J-0.5
Y9.288 J0.5
X22.207 Y9.188 J-0.1
G1 Y9.038
G19 G2 Y8.938 Z-2.95 K0.1
G0 Z5.
X16.457 Y14.688
Z1.2
G1 Z-0.7 F500.
G18 G2 X16.557 Z-0.8 I0.1
G1 X16.707
G17 G3 X16.807 Y14.788 J0.1
X15.807 Z-1.3 I-0.5
X16.807 Z-1.8 I0.5
X15.807 Z-2.3 I-0.5
X16.807 Z-2.8 I0.5
X16.307 Y15.288 Z-3.05 I-0.5
Y14.288 J-0.5
Y15.288 J0.5
X16.207 Y15.188 J-0.1
G1 Y15.038
G19 G2 Y14.938 Z-2.95 K0.1
G0 Z5.
X23.457 Y14.688
Z2.
G1 Z0.1 F500.
G18 G2 X23.557 Z0. I0.1
G1 X23.707
G17 G3 X23.807 Y14.788 J0.1
X20.807 Z-0.5 I-1.5
X23.807 Z-1. I1.5
X20.807 Z-1.5 I-1.5
X23.807 Z-2. I1.5
X20.807 Z-2.5 I-1.5
X22.542 Y13.307 Z-2.775 I1.5
X23.734 Y15.252 Z-3.05 I-0.235 J1.482
X20.88 Y14.325 I-1.427 J-0.464
X23.734 Y15.252 I1.427 J0.464
X23.608 Y15.316 I-0.095 J-0.031
G1 X23.465 Y15.27
X23.429 Y15.258 Z-3.042
X23.398 Y15.248 Z-3.021
X23.377 Y15.241 Z-2.988
X23.37 Y15.239 Z-2.95
G0 Z5.
X28.457 Y14.688
Z1.2
G1 Z-0.7 F500.
G18 G2 X28.557 Z-0.8 I0.1
G1 X28.707
G17 G3 X28.807 Y14.788 J0.1
X27.807 Z-1.3 I-0.5
X28.807 Z-1.8 I0.5
X27.807 Z-2.3 I-0.5
X28.807 Z-2.8 I0.5
X28.307 Y15.288 Z-3.05 I-0.5
Y14.288 J-0.5
Y15.288 J0.5
X28.207 Y15.188 J-0.1
G1 Y15.038
G19 G2 Y14.938 Z-2.95 K0.1
G0 Z5.
X22.457 Y20.688
Z1.2
G1 Z-0.7 F500.
G18 G2 X22.557 Z-0.8 I0.1
G1 X22.707
G17 G3 X22.807 Y20.788 J0.1
X21.807 Z-1.3 I-0.5
X22.807 Z-1.8 I0.5
X21.807 Z-2.3 I-0.5
X22.807 Z-2.8 I0.5
X22.307 Y21.288 Z-3.05 I-0.5
Y20.288 J-0.5
Y21.288 J0.5
X22.207 Y21.188 J-0.1
G1 Y21.038
G19 G2 Y20.938 Z-2.95 K0.1
G0 Z5.
X44.614 Y0.
Z1.9
G1 Z0. F500.
X44.639 Y-0.025
G17 G3 X44.664 Y0. J0.025
X44.564 Z-0.5 I-0.05
X44.664 Z-1. I0.05
X44.564 Z-1.5 I-0.05
X44.638 Y-0.044 Z-1.83 I0.05
X44.59 Y0.044 Z-2.33 I-0.024 J0.044
X44.568 Y0.018 Z-2.44 I0.024 J-0.044
X44.661 Y-0.018 Z-2.94 I0.046 J-0.018
X44.662 Y0.015 Z-3.05 I-0.046 J0.018
X44.566 Y-0.015 I-0.048 J-0.015
X44.662 Y0.015 I0.048 J0.015
X44.63 Y0.032 I-0.024 J-0.008
G1 X44.614 Y0.
G0 Z15.
(BORE2)
G0 X22.957 Y20.688
Z15.
Z2.
G1 Z0.1 F500.
G18 G2 X23.057 Z0. I0.1
G1 X23.207
G17 G3 X23.307 Y20.788 J0.1
X21.307 Z-0.5 I-1.
X22.616 Y19.837 Z-0.8 I1.
X21.998 Y21.739 I-0.309 J0.951
X22.616 Y19.837 I0.309 J-0.951
X22.68 Y19.963 I-0.031 J0.095
G1 X22.634 Y20.106
X22.622 Y20.142 Z-0.792
X22.612 Y20.173 Z-0.771
X22.605 Y20.194 Z-0.738
X22.603 Y20.201 Z-0.7
G0 Z5.
X16.957 Y14.688
Z2.
G1 Z0.1 F500.
G18 G2 X17.057 Z0. I0.1
G1 X17.207
G17 G3 X17.307 Y14.788 J0.1
X15.307 Z-0.5 I-1.
X16.616 Y13.837 Z-0.8 I1.
X15.998 Y15.739 I-0.309 J0.951
X16.616 Y13.837 I0.309 J-0.951
X16.68 Y13.963 I-0.031 J0.095
G1 X16.634 Y14.106
X16.622 Y14.142 Z-0.792
X16.612 Y14.173 Z-0.771
X16.605 Y14.194 Z-0.738
X16.603 Y14.201 Z-0.7
G0 Z5.
X22.957 Y8.688
Z2.
G1 Z0.1 F500.
G18 G2 X23.057 Z0. I0.1
G1 X23.207
G17 G3 X23.307 Y8.788 J0.1
X21.307 Z-0.5 I-1.
X22.616 Y7.837 Z-0.8 I1.
X21.998 Y9.739 I-0.309 J0.951
X22.616 Y7.837 I0.309 J-0.951
X22.68 Y7.963 I-0.031 J0.095
G1 X22.634 Y8.106
X22.622 Y8.142 Z-0.792
X22.612 Y8.173 Z-0.771
X22.605 Y8.194 Z-0.738
X22.603 Y8.201 Z-0.7
G0 Z5.
X28.957 Y14.688
Z2.
G1 Z0.1 F500.
G18 G2 X29.057 Z0. I0.1
G1 X29.207
G17 G3 X29.307 Y14.788 J0.1
X27.307 Z-0.5 I-1.
X28.616 Y13.837 Z-0.8 I1.
X27.998 Y15.739 I-0.309 J0.951
X28.616 Y13.837 I0.309 J-0.951
X28.68 Y13.963 I-0.031 J0.095
G1 X28.634 Y14.106
X28.622 Y14.142 Z-0.792
X28.612 Y14.173 Z-0.771
X28.605 Y14.194 Z-0.738
X28.603 Y14.201 Z-0.7
G0 Z15.
(2D CONTOUR1)
G0 X-6.316 Y1.077
Z15.
Z5.
G1 Z2.05 F300.
Z-0.717
X-6.308 Y1.076 Z-0.783
X-6.287 Y1.071 Z-0.847
X-6.252 Y1.063 Z-0.904
X-6.205 Y1.053 Z-0.951
X-6.15 Y1.041 Z-0.987
X-6.088 Y1.027 Z-1.009
X-6.023 Y1.013 Z-1.017
X-5.73 Y0.949 F500.
G3 X-5.372 Y1.178 I0.064 J0.293
G2 X-4.544 Y3.099 I5.372 J-1.178
X10.814 Y15.188 I26.851 J-18.31
X33.8 I11.493 J-0.4
X49.158 Y3.099 I-11.493 J-30.4
X40.07 Y-3.099 I-4.544 J-3.099
G3 X28.788 Y5.288 I-17.763 J-12.113
G2 X15.826 I-6.481 J9.5
G3 X4.544 Y-3.099 I6.481 J-20.5
G2 X-5.372 Y1.178 I-4.544 J3.099
G3 X-5.601 Y1.535 I-0.293 J0.064
G1 X-5.894 Y1.599
X-5.959 Y1.613 Z-1.009
X-6.021 Y1.627 Z-0.987
X-6.077 Y1.639 Z-0.951
X-6.123 Y1.649 Z-0.904
X-6.158 Y1.657 Z-0.847
X-6.18 Y1.662 Z-0.783
X-6.187 Y1.663 Z-0.717
G0 Z5.
X-6.316 Y1.077
G1 Z1.033 F300.
Z-1.733
X-6.308 Y1.076 Z-1.8
X-6.287 Y1.071 Z-1.863
X-6.252 Y1.063 Z-1.92
X-6.205 Y1.053 Z-1.968
X-6.15 Y1.041 Z-2.004
X-6.088 Y1.027 Z-2.026
X-6.023 Y1.013 Z-2.033
X-5.73 Y0.949 F500.
G3 X-5.372 Y1.178 I0.064 J0.293
G2 X-4.544 Y3.099 I5.372 J-1.178
X10.814 Y15.188 I26.851 J-18.31
X33.8 I11.493 J-0.4
X49.158 Y3.099 I-11.493 J-30.4
X40.07 Y-3.099 I-4.544 J-3.099
G3 X28.788 Y5.288 I-17.763 J-12.113
G2 X15.826 I-6.481 J9.5
G3 X4.544 Y-3.099 I6.481 J-20.5
G2 X-5.372 Y1.178 I-4.544 J3.099
G3 X-5.601 Y1.535 I-0.293 J0.064
G1 X-5.894 Y1.599
X-5.959 Y1.613 Z-2.026
X-6.021 Y1.627 Z-2.004
X-6.077 Y1.639 Z-1.968
X-6.123 Y1.649 Z-1.92
X-6.158 Y1.657 Z-1.863
X-6.18 Y1.662 Z-1.8
X-6.187 Y1.663 Z-1.733
G0 Z5.
X-6.316 Y1.077
G1 Z0.017 F300.
Z-2.75
X-6.308 Y1.076 Z-2.817
X-6.287 Y1.071 Z-2.88
X-6.252 Y1.063 Z-2.937
X-6.205 Y1.053 Z-2.985
X-6.15 Y1.041 Z-3.02
X-6.088 Y1.027 Z-3.042
X-6.023 Y1.013 Z-3.05
X-5.73 Y0.949 F500.
G3 X-5.372 Y1.178 I0.064 J0.293
G2 X-4.544 Y3.099 I5.372 J-1.178
X10.814 Y15.188 I26.851 J-18.31
X19.153 Y25.847 I11.493 J-0.4
G1 Z-2.3
G2 X25.153 Y25.931 I3.154 J-11.059
G1 Z-3.05 F300.
G2 X33.8 Y15.188 I-2.846 J-11.142 F500.
X49.158 Y3.099 I-11.493 J-30.4
X49.789 Y-1.863 I-4.544 J-3.099
G1 Z-2.3
G2 X45.006 Y-5.486 I-5.175 J1.863
G1 Z-3.05 F300.
G2 X40.07 Y-3.099 I-0.392 J5.486 F500.
G3 X28.788 Y5.288 I-17.763 J-12.113
G2 X25.854 Y3.849 I-6.481 J9.5
G1 Z-2.3
G2 X19.862 Y3.551 I-3.547 J10.939
G1 Z-3.05 F300.
G2 X15.826 Y5.288 I2.445 J11.237 F500.
G3 X4.544 Y-3.099 I6.481 J-20.5
G2 X-1.587 Y-5.266 I-4.544 J3.099
G1 Z-2.3
G2 X-5.458 Y-0.681 I1.587 J5.266
G1 Z-3.05 F300.
G2 X-5.372 Y1.178 I5.458 J0.681 F500.
G3 X-5.601 Y1.535 I-0.293 J0.064
G1 X-5.894 Y1.599
X-5.959 Y1.613 Z-3.042
X-6.021 Y1.627 Z-3.02
X-6.077 Y1.639 Z-2.985
X-6.123 Y1.649 Z-2.937
X-6.158 Y1.657 Z-2.88
X-6.18 Y1.662 Z-2.817
X-6.187 Y1.663 Z-2.75
G0 Z15.
G91
G28 Z0.
M5
G28 X0. Y0.
M30
%
