%
O00001001
(T1  D=1.95 CR=0. - ZMIN=-6.05 - FLAT END MILL)
G90 G94 G17
G21
G91
G28 Z0.
G90
(2D CONTOUR1)
T1 M6
S5000 M3
G54
G0 X64.596 Y6.228
G43 Z15. H1
G0 Z5.
G1 Z1.8 F66.7
Z-0.656
X64.602 Y6.232 Z-0.695
X64.621 Y6.243 Z-0.727
X64.649 Y6.259 Z-0.749
X64.682 Y6.278 Z-0.756
X64.851 Y6.376 F200.
G3 X64.888 Y6.513 I-0.05 J0.087
X63.112 Y5.487 I-0.888 J-0.513 F300.
X64.888 I0.888 J0.513
G2 X65.732 Y5.975 I0.844 J-0.487
G1 X76.5
G2 X77.475 Y5. J-0.975
G1 Y4.
G2 X74.5 Y1.025 I-2.975
G1 X67.873
G3 X66.893 Y0.772 J-2.025
G2 X60.048 Y1.519 I-2.893 J5.228
G3 X58.708 Y2.025 I-1.339 J-1.519
G1 X4.
G2 Y9.975 J3.975
G1 X58.708
G3 X60.048 Y10.481 J2.025
G2 X66.893 Y11.228 I3.952 J-4.481
G3 X67.873 Y10.975 I0.98 J1.772
G1 X74.5
G2 X77.475 Y8. J-2.975
G1 Y7.
G2 X76.5 Y6.025 I-0.975
G1 X65.732
G2 X64.888 Y6.513 J0.975
G3 X64.751 Y6.549 I-0.087 J-0.05 F200.
G1 X64.582 Y6.452
X64.549 Y6.432 Z-0.749
X64.521 Y6.416 Z-0.727
X64.502 Y6.405 Z-0.695
X64.496 Y6.402 Z-0.656
G0 Z5.
X64.596 Y6.228
G1 Z1.044 F66.7
Z-1.413
X64.602 Y6.232 Z-1.451
X64.621 Y6.243 Z-1.483
X64.649 Y6.259 Z-1.505
X64.682 Y6.278 Z-1.513
X64.851 Y6.376 F200.
G3 X64.888 Y6.513 I-0.05 J0.087
X63.112 Y5.487 I-0.888 J-0.513 F300.
X64.888 I0.888 J0.513
G2 X65.732 Y5.975 I0.844 J-0.487
G1 X76.5
G2 X77.475 Y5. J-0.975
G1 Y4.
G2 X74.5 Y1.025 I-2.975
G1 X67.873
G3 X66.893 Y0.772 J-2.025
G2 X60.048 Y1.519 I-2.893 J5.228
G3 X58.708 Y2.025 I-1.339 J-1.519
G1 X4.
G2 Y9.975 J3.975
G1 X58.708
G3 X60.048 Y10.481 J2.025
G2 X66.893 Y11.228 I3.952 J-4.481
G3 X67.873 Y10.975 I0.98 J1.772
G1 X74.5
G2 X77.475 Y8. J-2.975
G1 Y7.
G2 X76.5 Y6.025 I-0.975
G1 X65.732
G2 X64.888 Y6.513 J0.975
G3 X64.751 Y6.549 I-0.087 J-0.05 F200.
G1 X64.582 Y6.452
X64.549 Y6.432 Z-1.505
X64.521 Y6.416 Z-1.483
X64.502 Y6.405 Z-1.451
X64.496 Y6.402 Z-1.413
G0 Z5.
X64.596 Y6.228
G1 Z0.287 F66.7
Z-2.169
X64.602 Y6.232 Z-2.207
X64.621 Y6.243 Z-2.239
X64.649 Y6.259 Z-2.261
X64.682 Y6.278 Z-2.269
X64.851 Y6.376 F200.
G3 X64.888 Y6.513 I-0.05 J0.087
X63.112 Y5.487 I-0.888 J-0.513 F300.
X64.888 I0.888 J0.513
G2 X65.732 Y5.975 I0.844 J-0.487
G1 X76.5
G2 X77.475 Y5. J-0.975
G1 Y4.
G2 X74.5 Y1.025 I-2.975
G1 X67.873
G3 X66.893 Y0.772 J-2.025
G2 X60.048 Y1.519 I-2.893 J5.228
G3 X58.708 Y2.025 I-1.339 J-1.519
G1 X4.
G2 Y9.975 J3.975
G1 X58.708
G3 X60.048 Y10.481 J2.025
G2 X66.893 Y11.228 I3.952 J-4.481
G3 X67.873 Y10.975 I0.98 J1.772
G1 X74.5
G2 X77.475 Y8. J-2.975
G1 Y7.
G2 X76.5 Y6.025 I-0.975
G1 X65.732
G2 X64.888 Y6.513 J0.975
G3 X64.751 Y6.549 I-0.087 J-0.05 F200.
G1 X64.582 Y6.452
X64.549 Y6.432 Z-2.261
X64.521 Y6.416 Z-2.239
X64.502 Y6.405 Z-2.207
X64.496 Y6.402 Z-2.169
G0 Z5.
X64.596 Y6.228
G1 Z-0.469 F66.7
Z-2.925
X64.602 Y6.232 Z-2.963
X64.621 Y6.243 Z-2.996
X64.649 Y6.259 Z-3.017
X64.682 Y6.278 Z-3.025
X64.851 Y6.376 F200.
G3 X64.888 Y6.513 I-0.05 J0.087
X63.112 Y5.487 I-0.888 J-0.513 F300.
X64.888 I0.888 J0.513
G2 X65.732 Y5.975 I0.844 J-0.487
G1 X76.5
G2 X77.475 Y5. J-0.975
G1 Y4.
G2 X74.5 Y1.025 I-2.975
G1 X67.873
G3 X66.893 Y0.772 J-2.025
G2 X60.048 Y1.519 I-2.893 J5.228
G3 X58.708 Y2.025 I-1.339 J-1.519
G1 X4.
G2 Y9.975 J3.975
G1 X58.708
G3 X60.048 Y10.481 J2.025
G2 X66.893 Y11.228 I3.952 J-4.481
G3 X67.873 Y10.975 I0.98 J1.772
G1 X74.5
G2 X77.475 Y8. J-2.975
G1 Y7.
G2 X76.5 Y6.025 I-0.975
G1 X65.732
G2 X64.888 Y6.513 J0.975
G3 X64.751 Y6.549 I-0.087 J-0.05 F200.
G1 X64.582 Y6.452
X64.549 Y6.432 Z-3.017
X64.521 Y6.416 Z-2.996
X64.502 Y6.405 Z-2.963
X64.496 Y6.402 Z-2.925
G0 Z5.
X64.596 Y6.228
G1 Z-1.225 F66.7
Z-3.681
X64.602 Y6.232 Z-3.72
X64.621 Y6.243 Z-3.752
X64.649 Y6.259 Z-3.774
X64.682 Y6.278 Z-3.781
X64.851 Y6.376 F200.
G3 X64.888 Y6.513 I-0.05 J0.087
X63.112 Y5.487 I-0.888 J-0.513 F300.
X64.888 I0.888 J0.513
G2 X65.732 Y5.975 I0.844 J-0.487
G1 X76.5
G2 X77.475 Y5. J-0.975
G1 Y4.
G2 X74.5 Y1.025 I-2.975
G1 X67.873
G3 X66.893 Y0.772 J-2.025
G2 X60.048 Y1.519 I-2.893 J5.228
G3 X58.708 Y2.025 I-1.339 J-1.519
G1 X4.
G2 Y9.975 J3.975
G1 X58.708
G3 X60.048 Y10.481 J2.025
G2 X66.893 Y11.228 I3.952 J-4.481
G3 X67.873 Y10.975 I0.98 J1.772
G1 X74.5
G2 X77.475 Y8. J-2.975
G1 Y7.
G2 X76.5 Y6.025 I-0.975
G1 X65.732
G2 X64.888 Y6.513 J0.975
G3 X64.751 Y6.549 I-0.087 J-0.05 F200.
G1 X64.582 Y6.452
X64.549 Y6.432 Z-3.774
X64.521 Y6.416 Z-3.752
X64.502 Y6.405 Z-3.72
X64.496 Y6.402 Z-3.681
G0 Z5.
X64.596 Y6.228
G1 Z-1.981 F66.7
Z-4.438
X64.602 Y6.232 Z-4.476
X64.621 Y6.243 Z-4.508
X64.649 Y6.259 Z-4.53
X64.682 Y6.278 Z-4.537
X64.851 Y6.376 F200.
G3 X64.888 Y6.513 I-0.05 J0.087
X63.112 Y5.487 I-0.888 J-0.513 F300.
X64.888 I0.888 J0.513
G2 X65.732 Y5.975 I0.844 J-0.487
G1 X76.5
G2 X77.475 Y5. J-0.975
G1 Y4.
G2 X74.5 Y1.025 I-2.975
G1 X67.873
G3 X66.893 Y0.772 J-2.025
G2 X60.048 Y1.519 I-2.893 J5.228
G3 X58.708 Y2.025 I-1.339 J-1.519
G1 X4.
G2 Y9.975 J3.975
G1 X58.708
G3 X60.048 Y10.481 J2.025
G2 X66.893 Y11.228 I3.952 J-4.481
G3 X67.873 Y10.975 I0.98 J1.772
G1 X74.5
G2 X77.475 Y8. J-2.975
G1 Y7.
G2 X76.5 Y6.025 I-0.975
G1 X65.732
G2 X64.888 Y6.513 J0.975
G3 X64.751 Y6.549 I-0.087 J-0.05 F200.
G1 X64.582 Y6.452
X64.549 Y6.432 Z-4.53
X64.521 Y6.416 Z-4.508
X64.502 Y6.405 Z-4.476
X64.496 Y6.402 Z-4.438
G0 Z5.
X64.596 Y6.228
G1 Z-2.737 F66.7
Z-5.194
X64.602 Y6.232 Z-5.232
X64.621 Y6.243 Z-5.264
X64.649 Y6.259 Z-5.286
X64.682 Y6.278 Z-5.294
X64.851 Y6.376 F200.
G3 X64.888 Y6.513 I-0.05 J0.087
X63.112 Y5.487 I-0.888 J-0.513 F300.
X64.888 I0.888 J0.513
G2 X65.732 Y5.975 I0.844 J-0.487
G1 X76.5
G2 X77.475 Y5. J-0.975
G1 Y4.
G2 X74.5 Y1.025 I-2.975
G1 X67.873
G3 X66.893 Y0.772 J-2.025
G2 X60.048 Y1.519 I-2.893 J5.228
G3 X58.708 Y2.025 I-1.339 J-1.519
G1 X47.506
Z-5.05
X42.556
Z-5.294 F66.7
X20.152 F300.
Z-5.05
X15.202
Z-5.294 F66.7
X4. F300.
G2 Y9.975 J3.975
G1 X15.202
Z-5.05
X20.152
Z-5.294 F66.7
X42.556 F300.
Z-5.05
X47.506
Z-5.294 F66.7
X58.708 F300.
G3 X60.048 Y10.481 J2.025
G2 X66.893 Y11.228 I3.952 J-4.481
G3 X67.873 Y10.975 I0.98 J1.772
G1 X74.5
G2 X77.475 Y8. J-2.975
G1 Y7.
G2 X76.5 Y6.025 I-0.975
G1 X65.732
G2 X64.888 Y6.513 J0.975
G3 X64.751 Y6.549 I-0.087 J-0.05 F200.
G1 X64.582 Y6.452
X64.549 Y6.432 Z-5.286
X64.521 Y6.416 Z-5.264
X64.502 Y6.405 Z-5.232
X64.496 Y6.402 Z-5.194
G0 Z5.
X64.596 Y6.228
G1 Z-3.494 F66.7
Z-5.95
X64.602 Y6.232 Z-5.988
X64.621 Y6.243 Z-6.021
X64.649 Y6.259 Z-6.042
X64.682 Y6.278 Z-6.05
X64.851 Y6.376 F200.
G3 X64.888 Y6.513 I-0.05 J0.087
X63.112 Y5.487 I-0.888 J-0.513 F300.
X64.888 I0.888 J0.513
G2 X65.732 Y5.975 I0.844 J-0.487
G1 X76.5
G2 X77.475 Y5. J-0.975
G1 Y4.
G2 X74.5 Y1.025 I-2.975
G1 X67.873
G3 X66.893 Y0.772 J-2.025
G2 X60.048 Y1.519 I-2.893 J5.228
G3 X58.708 Y2.025 I-1.339 J-1.519
G1 X47.506
Z-5.05
X42.556
Z-6.05 F66.7
X20.152 F300.
Z-5.05
X15.202
Z-6.05 F66.7
X4. F300.
G2 Y9.975 J3.975
G1 X15.202
Z-5.05
X20.152
Z-6.05 F66.7
X42.556 F300.
Z-5.05
X47.506
Z-6.05 F66.7
X58.708 F300.
G3 X60.048 Y10.481 J2.025
G2 X66.893 Y11.228 I3.952 J-4.481
G3 X67.873 Y10.975 I0.98 J1.772
G1 X74.5
G2 X77.475 Y8. J-2.975
G1 Y7.
G2 X76.5 Y6.025 I-0.975
G1 X65.732
G2 X64.888 Y6.513 J0.975
G3 X64.751 Y6.549 I-0.087 J-0.05 F200.
G1 X64.582 Y6.452
X64.549 Y6.432 Z-6.042
X64.521 Y6.416 Z-6.021
X64.502 Y6.405 Z-5.988
X64.496 Y6.402 Z-5.95
G0 Z15.
G91
G28 Z0.
M5
G28 X0. Y0.
M30
%
