%
O00001001
(T1  D=2. CR=0. - ZMIN=-6.05 - FLAT END MILL)
G90 G94 G17
G21
G91
G28 Z0.
G90
(BORE1)
T1 M6
S5000 M3
G54
G0 X-0.1 Y7.95
G43 Z15. H1
G0 Z2.
G1 Z0.1 F200.
G19 G2 Y7.85 Z0. J-0.1
G1 Y7.75
G17 G3 X0. Y7.65 I0.1
Y8.35 Z-0.25 J0.35
Y7.65 Z-0.5 J-0.35
Y8.35 Z-0.75 J0.35
Y7.65 Z-1. J-0.35
Y8.35 Z-1.25 J0.35
Y7.65 Z-1.5 J-0.35
Y8.35 Z-1.75 J0.35
Y7.65 Z-2. J-0.35
Y8.35 Z-2.25 J0.35
Y7.65 Z-2.5 J-0.35
Y8.35 Z-2.75 J0.35
Y7.65 Z-3. J-0.35
Y8.35 Z-3.25 J0.35
Y7.65 Z-3.5 J-0.35
Y8.35 Z-3.75 J0.35
Y7.65 Z-4. J-0.35
Y8.35 Z-4.25 J0.35
Y7.65 Z-4.5 J-0.35
Y8.35 Z-4.75 J0.35
Y7.65 Z-5. J-0.35
Y8.35 Z-5.25 J0.35
Y7.65 Z-5.5 J-0.35
Y8.35 Z-5.75 J0.35
Y7.65 Z-6. J-0.35
X0.206 Y7.717 Z-6.05 J0.35
X-0.206 Y8.283 I-0.206 J0.283
X0.206 Y7.717 I0.206 J-0.283
X0.228 Y7.857 I-0.059 J0.081
G1 X0.169 Y7.937
X0.147 Y7.968 Z-6.042
X0.128 Y7.995 Z-6.021
X0.115 Y8.012 Z-5.988
X0.11 Y8.018 Z-5.95
G0 Z5.
X8.1 Y0.05
Z2.
G1 Z0.1 F200.
G19 G3 Y0.15 Z0. J0.1
G1 Y0.25
G17 G3 X8. Y0.35 I-0.1
Y-0.35 Z-0.25 J-0.35
Y0.35 Z-0.5 J0.35
Y-0.35 Z-0.75 J-0.35
Y0.35 Z-1. J0.35
Y-0.35 Z-1.25 J-0.35
Y0.35 Z-1.5 J0.35
Y-0.35 Z-1.75 J-0.35
Y0.35 Z-2. J0.35
Y-0.35 Z-2.25 J-0.35
Y0.35 Z-2.5 J0.35
Y-0.35 Z-2.75 J-0.35
Y0.35 Z-3. J0.35
Y-0.35 Z-3.25 J-0.35
Y0.35 Z-3.5 J0.35
Y-0.35 Z-3.75 J-0.35
Y0.35 Z-4. J0.35
Y-0.35 Z-4.25 J-0.35
Y0.35 Z-4.5 J0.35
Y-0.35 Z-4.75 J-0.35
Y0.35 Z-5. J0.35
Y-0.35 Z-5.25 J-0.35
Y0.35 Z-5.5 J0.35
Y-0.35 Z-5.75 J-0.35
Y0.35 Z-6. J0.35
X7.794 Y0.283 Z-6.05 J-0.35
X8.206 Y-0.283 I0.206 J-0.283
X7.794 Y0.283 I-0.206 J0.283
X7.772 Y0.143 I0.059 J-0.081
G1 X7.831 Y0.063
X7.853 Y0.032 Z-6.042
X7.872 Y0.005 Z-6.021
X7.885 Y-0.012 Z-5.988
X7.89 Y-0.018 Z-5.95
G0 Z5.
X0.1 Y4.2
Z2.
G1 Z0.1 F200.
G19 G3 Y4.3 Z0. J0.1
G1 Y4.4
G17 G3 X0. Y4.5 I-0.1
Y-4.5 Z-0.25 J-4.5
Y4.5 Z-0.5 J4.5
Y-4.5 Z-0.75 J-4.5
Y4.5 Z-1. J4.5
Y-4.5 Z-1.25 J-4.5
Y4.5 Z-1.5 J4.5
Y-4.5 Z-1.75 J-4.5
Y4.5 Z-2. J4.5
Y-4.5 Z-2.25 J-4.5
Y4.5 Z-2.5 J4.5
Y-4.5 Z-2.75 J-4.5
Y4.5 Z-3. J4.5
Y-4.5 Z-3.25 J-4.5
Y4.5 Z-3.5 J4.5
Y-4.5 Z-3.75 J-4.5
Y4.5 Z-4. J4.5
Y-4.5 Z-4.25 J-4.5
Y4.5 Z-4.5 J4.5
Y-4.5 Z-4.75 J-4.5
Y4.5 Z-5. J4.5
Y-4.5 Z-5.25 J-4.5
Y4.5 Z-5.5 J4.5
Y-4.5 Z-5.75 J-4.5
Y4.5 Z-6. J4.5
X-2.645 Y3.641 Z-6.05 J-4.5
X2.645 Y-3.641 I2.645 J-3.641
X-2.645 Y3.641 I-2.645 J3.641
X-2.667 Y3.501 I0.059 J-0.081
G1 X-2.608 Y3.42
X-2.586 Y3.389 Z-6.042
X-2.567 Y3.363 Z-6.021
X-2.554 Y3.345 Z-5.988
X-2.55 Y3.339 Z-5.95
G0 Z5.
X-8.1 Y-0.05
Z2.
G1 Z0.1 F200.
G19 G2 Y-0.15 Z0. J-0.1
G1 Y-0.25
G17 G3 X-8. Y-0.35 I0.1
Y0.35 Z-0.25 J0.35
Y-0.35 Z-0.5 J-0.35
Y0.35 Z-0.75 J0.35
Y-0.35 Z-1. J-0.35
Y0.35 Z-1.25 J0.35
Y-0.35 Z-1.5 J-0.35
Y0.35 Z-1.75 J0.35
Y-0.35 Z-2. J-0.35
Y0.35 Z-2.25 J0.35
Y-0.35 Z-2.5 J-0.35
Y0.35 Z-2.75 J0.35
Y-0.35 Z-3. J-0.35
Y0.35 Z-3.25 J0.35
Y-0.35 Z-3.5 J-0.35
Y0.35 Z-3.75 J0.35
Y-0.35 Z-4. J-0.35
Y0.35 Z-4.25 J0.35
Y-0.35 Z-4.5 J-0.35
Y0.35 Z-4.75 J0.35
Y-0.35 Z-5. J-0.35
Y0.35 Z-5.25 J0.35
Y-0.35 Z-5.5 J-0.35
Y0.35 Z-5.75 J0.35
Y-0.35 Z-6. J-0.35
X-7.794 Y-0.283 Z-6.05 J0.35
X-8.206 Y0.283 I-0.206 J0.283
X-7.794 Y-0.283 I0.206 J-0.283
X-7.772 Y-0.143 I-0.059 J0.081
G1 X-7.831 Y-0.063
X-7.853 Y-0.032 Z-6.042
X-7.872 Y-0.005 Z-6.021
X-7.885 Y0.012 Z-5.988
X-7.89 Y0.018 Z-5.95
G0 Z5.
X0.1 Y-7.95
Z2.
G1 Z0.1 F200.
G19 G3 Y-7.85 Z0. J0.1
G1 Y-7.75
G17 G3 X0. Y-7.65 I-0.1
Y-8.35 Z-0.25 J-0.35
Y-7.65 Z-0.5 J0.35
Y-8.35 Z-0.75 J-0.35
Y-7.65 Z-1. J0.35
Y-8.35 Z-1.25 J-0.35
Y-7.65 Z-1.5 J0.35
Y-8.35 Z-1.75 J-0.35
Y-7.65 Z-2. J0.35
Y-8.35 Z-2.25 J-0.35
Y-7.65 Z-2.5 J0.35
Y-8.35 Z-2.75 J-0.35
Y-7.65 Z-3. J0.35
Y-8.35 Z-3.25 J-0.35
Y-7.65 Z-3.5 J0.35
Y-8.35 Z-3.75 J-0.35
Y-7.65 Z-4. J0.35
Y-8.35 Z-4.25 J-0.35
Y-7.65 Z-4.5 J0.35
Y-8.35 Z-4.75 J-0.35
Y-7.65 Z-5. J0.35
Y-8.35 Z-5.25 J-0.35
Y-7.65 Z-5.5 J0.35
Y-8.35 Z-5.75 J-0.35
Y-7.65 Z-6. J0.35
X-0.206 Y-7.717 Z-6.05 J-0.35
X0.206 Y-8.283 I0.206 J-0.283
X-0.206 Y-7.717 I-0.206 J0.283
X-0.228 Y-7.857 I0.059 J-0.081
G1 X-0.169 Y-7.937
X-0.147 Y-7.968 Z-6.042
X-0.128 Y-7.995 Z-6.021
X-0.115 Y-8.012 Z-5.988
X-0.11 Y-8.018 Z-5.95
G0 Z15.
(2D CONTOUR1)
G0 X78.92 Y-9.356
Z15.
Z5.
G1 Z2. F66.7
Z-0.764
X78.919 Y-9.348 Z-0.803
X78.918 Y-9.326 Z-0.835
X78.917 Y-9.294 Z-0.857
X78.915 Y-9.256 Z-0.864
X78.91 Y-9.156 F200.
G3 X78.805 Y-9.061 I-0.1 J-0.005
G1 X0.05 Y-12.999
G2 X0. Y-13. I-0.05 J0.999
Y13. J13.
X0.05 Y12.999 J-1.
G1 X80.025 Y9.
G2 X89. Y0. I-0.025 J-9.
X80.025 Y-9. I-9.
G1 X78.805 Y-9.061
G3 X78.71 Y-9.166 I0.005 J-0.1
G1 X78.715 Y-9.266
X78.717 Y-9.304 Z-0.857
X78.718 Y-9.336 Z-0.835
X78.719 Y-9.358 Z-0.803
X78.72 Y-9.366 Z-0.764
G0 Z5.
X78.92 Y-9.356
G1 Z1.136 F66.7
Z-1.629
X78.919 Y-9.348 Z-1.667
X78.918 Y-9.326 Z-1.699
X78.917 Y-9.294 Z-1.721
X78.915 Y-9.256 Z-1.729
X78.91 Y-9.156 F200.
G3 X78.805 Y-9.061 I-0.1 J-0.005
G1 X0.05 Y-12.999
G2 X0. Y-13. I-0.05 J0.999
Y13. J13.
X0.05 Y12.999 J-1.
G1 X80.025 Y9.
G2 X89. Y0. I-0.025 J-9.
X80.025 Y-9. I-9.
G1 X78.805 Y-9.061
G3 X78.71 Y-9.166 I0.005 J-0.1
G1 X78.715 Y-9.266
X78.717 Y-9.304 Z-1.721
X78.718 Y-9.336 Z-1.699
X78.719 Y-9.358 Z-1.667
X78.72 Y-9.366 Z-1.629
G0 Z5.
X78.92 Y-9.356
G1 Z0.271 F66.7
Z-2.493
X78.919 Y-9.348 Z-2.531
X78.918 Y-9.326 Z-2.564
X78.917 Y-9.294 Z-2.585
X78.915 Y-9.256 Z-2.593
X78.91 Y-9.156 F200.
G3 X78.805 Y-9.061 I-0.1 J-0.005
G1 X0.05 Y-12.999
G2 X0. Y-13. I-0.05 J0.999
Y13. J13.
X0.05 Y12.999 J-1.
G1 X80.025 Y9.
G2 X89. Y0. I-0.025 J-9.
X80.025 Y-9. I-9.
G1 X78.805 Y-9.061
G3 X78.71 Y-9.166 I0.005 J-0.1
G1 X78.715 Y-9.266
X78.717 Y-9.304 Z-2.585
X78.718 Y-9.336 Z-2.564
X78.719 Y-9.358 Z-2.531
X78.72 Y-9.366 Z-2.493
G0 Z5.
X78.92 Y-9.356
G1 Z-0.593 F66.7
Z-3.357
X78.919 Y-9.348 Z-3.395
X78.918 Y-9.326 Z-3.428
X78.917 Y-9.294 Z-3.45
X78.915 Y-9.256 Z-3.457
X78.91 Y-9.156 F200.
G3 X78.805 Y-9.061 I-0.1 J-0.005
G1 X0.05 Y-12.999
G2 X0. Y-13. I-0.05 J0.999
Y13. J13.
X0.05 Y12.999 J-1.
G1 X80.025 Y9.
G2 X89. Y0. I-0.025 J-9.
X80.025 Y-9. I-9.
G1 X78.805 Y-9.061
G3 X78.71 Y-9.166 I0.005 J-0.1
G1 X78.715 Y-9.266
X78.717 Y-9.304 Z-3.45
X78.718 Y-9.336 Z-3.428
X78.719 Y-9.358 Z-3.395
X78.72 Y-9.366 Z-3.357
G0 Z5.
X78.92 Y-9.356
G1 Z-1.457 F66.7
Z-4.221
X78.919 Y-9.348 Z-4.26
X78.918 Y-9.326 Z-4.292
X78.917 Y-9.294 Z-4.314
X78.915 Y-9.256 Z-4.321
X78.91 Y-9.156 F200.
G3 X78.805 Y-9.061 I-0.1 J-0.005
G1 X0.05 Y-12.999
G2 X0. Y-13. I-0.05 J0.999
Y13. J13.
X0.05 Y12.999 J-1.
G1 X80.025 Y9.
G2 X89. Y0. I-0.025 J-9.
X80.025 Y-9. I-9.
G1 X78.805 Y-9.061
G3 X78.71 Y-9.166 I0.005 J-0.1
G1 X78.715 Y-9.266
X78.717 Y-9.304 Z-4.314
X78.718 Y-9.336 Z-4.292
X78.719 Y-9.358 Z-4.26
X78.72 Y-9.366 Z-4.221
G0 Z5.
X78.92 Y-9.356
G1 Z-2.321 F66.7
Z-5.086
X78.919 Y-9.348 Z-5.124
X78.918 Y-9.326 Z-5.156
X78.917 Y-9.294 Z-5.178
X78.915 Y-9.256 Z-5.186
X78.91 Y-9.156 F200.
G3 X78.805 Y-9.061 I-0.1 J-0.005
G1 X62.547 Y-9.874
Z-5.05
X57.553 Y-10.124
Z-5.186 F66.7
X22.547 Y-11.874 F200.
Z-5.05
X17.553 Y-12.124
Z-5.186 F66.7
X0.05 Y-12.999 F200.
G2 X0. Y-13. I-0.05 J0.999
X-12.757 Y-2.5 J13.
G1 Z-5.05
G2 Y2.5 I12.757 J2.5
G1 Z-5.186 F66.7
G2 X0. Y13. I12.757 J-2.5 F200.
X0.05 Y12.999 J-1.
G1 X17.553 Y12.124
Z-5.05
X22.547 Y11.874
Z-5.186 F66.7
X57.553 Y10.124 F200.
Z-5.05
X62.547 Y9.874
Z-5.186 F66.7
X80.025 Y9. F200.
G2 X89. Y0. I-0.025 J-9.
X80.025 Y-9. I-9.
G1 X78.805 Y-9.061
G3 X78.71 Y-9.166 I0.005 J-0.1
G1 X78.715 Y-9.266
X78.717 Y-9.304 Z-5.178
X78.718 Y-9.336 Z-5.156
X78.719 Y-9.358 Z-5.124
X78.72 Y-9.366 Z-5.086
G0 Z5.
X78.92 Y-9.356
G1 Z-3.186 F66.7
Z-5.95
X78.919 Y-9.348 Z-5.988
X78.918 Y-9.326 Z-6.021
X78.917 Y-9.294 Z-6.042
X78.915 Y-9.256 Z-6.05
X78.91 Y-9.156 F200.
G3 X78.805 Y-9.061 I-0.1 J-0.005
G1 X62.547 Y-9.874
Z-5.05
X57.553 Y-10.124
Z-6.05 F66.7
X22.547 Y-11.874 F200.
Z-5.05
X17.553 Y-12.124
Z-6.05 F66.7
X0.05 Y-12.999 F200.
G2 X0. Y-13. I-0.05 J0.999
X-12.757 Y-2.5 J13.
G1 Z-5.05
G2 Y2.5 I12.757 J2.5
G1 Z-6.05 F66.7
G2 X0. Y13. I12.757 J-2.5 F200.
X0.05 Y12.999 J-1.
G1 X17.553 Y12.124
Z-5.05
X22.547 Y11.874
Z-6.05 F66.7
X57.553 Y10.124 F200.
Z-5.05
X62.547 Y9.874
Z-6.05 F66.7
X80.025 Y9. F200.
G2 X89. Y0. I-0.025 J-9.
X80.025 Y-9. I-9.
G1 X78.805 Y-9.061
G3 X78.71 Y-9.166 I0.005 J-0.1
G1 X78.715 Y-9.266
X78.717 Y-9.304 Z-6.042
X78.718 Y-9.336 Z-6.021
X78.719 Y-9.358 Z-5.988
X78.72 Y-9.366 Z-5.95
G0 Z15.
G91
G28 Z0.
M5
G28 X0. Y0.
M30
%
